!!!!SEGMENT: pl-kk--kk-i-83--002_anerio-giovanni-francesco--missa-pulchra-es-et-in-terra.krn
!!!cenid: 16xx:1341
!!!COM: Anerio, Giovanni Francesco
!!!COM-rismID: pe30000104
!!!CDT: 1569/07/07-1630/06/11
!!!CNT: Italian
!!!OPR: Missa pulchra es
!!!OTL: Et in terra
!!!OMV: 002
!!!PDT:
!!!AGN: Sacred; Mass
!!!SMS-siglum: PL-Kk
!!!SMS-shelfmark: Kk.I.83
!!!SMS-shelfwork: 001-002 M
!!!SMS-variant:
!!!SMS-altvar:
!!!NIFC-rismSourceID: 1001151647
!!!NIFC-rismChildID: 1001151647
!!!NIFC-islandoraID: pl-kk:2875
!!!URL-pdf-islandora: https://repozytorium.nifc.pl/islandora/object/pl-kk%3A2875/datastream/PDF/view
!!!URL-scan: https://polish.musicsources.pl/pl/lokalizacje/galeria/rekopisy/6143 @EN{Scan on Polish Music Sources Website} @PL{Skany w portalu Dziedzictwo Muzyki Polskiej w otwartym dostępie}
!!!IIIF:
!!!ONB-nifc: UWAGA: części Mszy: 1. Kyrie, 2. Et in terra, 3. Patrem, 4. Sanctus, 5. Benedictus, 6. Agnus Dei
!!!AIN: 2 alto 2 empty 2 tenor 2 vox
!!!key:
**kern	**text	**kern	**text	**kern	**text	**kern	**text	**kern	**text	**kern	**text	**kern	**text	**kern	**text
*part8	*part8	*part7	*part7	*part6	*part6	*part5	*part5	*part4	*part4	*part3	*part3	*part2	*part2	*part1	*part1
*staff8	*staff8	*staff7	*staff7	*staff6	*staff6	*staff5	*staff5	*staff4	*staff4	*staff3	*staff3	*staff2	*staff2	*staff1	*staff1
*Iempty	*	*Itenor	*	*Ialto	*	*Ivox	*	*Iempty	*	*Itenor	*	*Ialto	*	*Ivox	*
*I"Baſsus II.	*	*I"Tenor 2	*	*I"Altus 2.	*	*I"Cantus 2.	*	*I"Baſsus I.	*	*I"Tenor I.	*	*I"Altus I.	*	*I"Cantus I.	*
*I'B 2	*	*I'T 2	*	*I'A 2	*	*I'S 2	*	*I'B 1	*	*I'T 1	*	*I'A 1	*	*I'S 1	*
*clefF4	*	*clefC4	*	*clefC3	*	*clefC1	*	*clefF4	*	*clefC4	*	*clefC3	*	*clefC1	*
*k[]	*	*k[]	*	*k[]	*	*k[]	*	*k[]	*	*k[]	*	*k[]	*	*k[]	*
*a:	*	*a:	*	*a:	*	*a:	*	*a:	*	*a:	*	*a:	*	*a:	*
*M2/1	*	*M2/1	*	*M2/1	*	*M2/1	*	*M2/1	*	*M2/1	*	*M2/1	*	*M2/1	*
*met(C|)	*	*met(C|)	*	*met(C|)	*	*met(C|)	*	*met(C|)	*	*met(C|)	*	*met(C|)	*	*met(C|)	*
=1-	=1-	=1-	=1-	=1-	=1-	=1-	=1-	=1-	=1-	=1-	=1-	=1-	=1-	=1-	=1-
*all\right	*	*all\right	*	*all\right	*	*all\right	*	*all\right	*	*all\right	*	*all\right	*	*all\right	*
!	!	!	!	!	!	!	!	!LO:TX:t=P:problem=kreska pseudotaktowa	!	!	!	!LO:TX:t=P:problem=kreska pseudotaktowa	!	!	!
00r	.	00r	.	00r	.	00r	.	0r	.	1E/	Et	00r	.	00r	.
!	!	!	!	!	!	!	!	!	!	!LO:TX:t=P:problem=kreska pseudotaktowa	!	!	!	!	!
.	.	.	.	.	.	.	.	.	.	1G/	in	.	.	.	.
=2-	=2-	=2-	=2-	=2-	=2-	=2-	=2-	=2-	=2-	=2-	=2-	=2-	=2-	=2-	=2-
.	.	.	.	.	.	.	.	1AA/	Et	2A/	ter-	.	.	.	.
*	*	*	*	*	*	*	*	*	*	*2\right	*	*	*	*	*
.	.	.	.	.	.	.	.	.	.	2.c\	-ra	.	.	.	.
!	!	!	!	!	!	!	!	!LO:TX:t=P:problem=kreska pseudotaktowa	!	!	!	!	!	!	!
.	.	.	.	.	.	.	.	1C/	in	.	.	.	.	.	.
.	.	.	.	.	.	.	.	.	.	4B\	.	.	.	.	.
.	.	.	.	.	.	.	.	.	.	4A/	.	.	.	.	.
!	!	!	!	!	!	!	!	!	!	!LO:TX:t=P:problem=kreska pseudotaktowa	!	!	!	!	!
.	.	.	.	.	.	.	.	.	.	4G/	.	.	.	.	.
=3-	=3-	=3-	=3-	=3-	=3-	=3-	=3-	=3-	=3-	=3-	=3-	=3-	=3-	=3-	=3-
*	*	*	*	*	*	*	*	*2\right	*	*	*	*	*	*	*
00r	.	00r	.	00r	.	00r	.	2D\	ter-	2F/	.	1A/	Et	00r	.
!	!	!	!	!	!	!	!	!LO:TX:t=P:problem=kreska pseudotaktowa	!	!	!	!	!	!	!
.	.	.	.	.	.	.	.	2F\	-ra	1A\	pax	.	.	.	.
!	!	!	!	!	!	!	!	!	!	!	!	!LO:TX:t=P:problem=kreska pseudotaktowa	!	!	!
.	.	.	.	.	.	.	.	2F\	pax	.	.	1c\	in	.	.
!	!	!	!	!	!	!	!	!LO:TX:t=P:problem=kreska pseudotaktowa	!	!LO:TX:t=P:problem=kreska pseudotaktowa	!	!	!	!	!
.	.	.	.	.	.	.	.	2E\	ho-	2G/	ho-	.	.	.	.
!	!	!	!	!	!	!	!	!	!	!LO:LB:g=original	!	!	!	!	!
=4-	=4-	=4-	=4-	=4-	=4-	=4-	=4-	=4-	=4-	=4-	=4-	=4-	=4-	=4-	=4-
*	*	*	*	*	*	*	*	*	*	*	*	*2\right	*	*	*
.	.	.	.	.	.	.	.	2.D\	-mi-	4A/	.	2d\	ter-	.	.
.	.	.	.	.	.	.	.	.	.	4G/	.	.	.	.	.
!	!	!	!	!	!	!	!	!	!	!	!	!LO:TX:t=P:problem=kreska pseudotaktowa	!	!	!
.	.	.	.	.	.	.	.	.	.	4F/	.	2f\	-ra	.	.
!	!	!	!	!	!	!	!	!	!	!LO:TX:t=P:problem=kreska pseudotaktowa	!	!	!	!	!
.	.	.	.	.	.	.	.	4E\	-ni-	4G/	.	.	.	.	.
.	.	.	.	.	.	.	.	2F\	.	4A\	.	2f\	pax	.	.
.	.	.	.	.	.	.	.	.	.	4B\	.	.	.	.	.
!	!	!	!	!	!	!	!	!LO:TX:t=P:problem=kreska pseudotaktowa	!	!	!	!	!	!	!
.	.	.	.	.	.	.	.	2C/	-bus	1c\	-mi-	2e\	ho-	.	.
=5-	=5-	=5-	=5-	=5-	=5-	=5-	=5-	=5-	=5-	=5-	=5-	=5-	=5-	=5-	=5-
!	!	!	!	!	!	!	!	!	!	!	!	!	!	!LO:TX:t=P:problem=kreska pseudotaktowa	!
00r	.	00r	.	00r	.	00r	.	1G\	.	.	.	2.d\	-mi-	1r	.
!	!	!	!	!	!	!	!	!	!	!LO:TX:t=P:problem=kreska pseudotaktowa	!	!	!	!	!
.	.	.	.	.	.	.	.	.	.	2B\	-ni-	.	.	.	.
!	!	!	!	!	!	!	!	!	!	!	!	!LO:TX:t=P:problem=kreska pseudotaktowa	!	!	!
.	.	.	.	.	.	.	.	.	.	.	.	4d\	-ni-	.	.
!	!	!	!	!	!	!	!	!	!	!	!	!LO:LB:g=original	!	!	!
.	.	.	.	.	.	.	.	1A\	bo-	2A\	-bus	2c\	-bus	1e/	Bo-
.	.	.	.	.	.	.	.	.	.	1c\	bo-	2.e\	bo-	.	.
=6-	=6-	=6-	=6-	=6-	=6-	=6-	=6-	=6-	=6-	=6-	=6-	=6-	=6-	=6-	=6-
!	!	!	!	!	!	!	!	!LO:TX:t=P:problem=kreska pseudotaktowa	!	!	!	!	!	!LO:TX:t=P:problem=kreska pseudotaktowa	!
.	.	.	.	.	.	.	.	1G\	-nae	.	.	.	.	1g\	-nae
.	.	.	.	.	.	.	.	.	.	.	.	8d\L	.	.	.
.	.	.	.	.	.	.	.	.	.	.	.	8c\J	.	.	.
!	!	!	!	!	!	!	!	!	!	!LO:TX:t=P:problem=kreska pseudotaktowa	!	!	!	!	!
.	.	.	.	.	.	.	.	.	.	2B\	nae	4d\	.	.	.
!	!	!	!	!	!	!	!	!	!	!	!	!LO:TX:t=P:problem=kreska pseudotaktowa	!	!	!
.	.	.	.	.	.	.	.	.	.	.	.	4e\	.	.	.
!	!	!	!	!	!	!	!	!	!	!	!	!	!	!LO:TX:t=P:problem=kreska pseudotaktowa	!
.	.	.	.	.	.	.	.	2F\	Vo-	2c\	Vo-	4f\	.	1a\	Vo-
.	.	.	.	.	.	.	.	.	.	.	.	4g\	.	.	.
!	!	!	!	!	!	!	!	!	!	!	!	!LO:TX:t=P::problem=kreska pseudotaktowa&colon;między nutą a kropką, ligatura	!	!	!
!	!	!	!	!	!	!	!	!	!	!LO:TX:t=P:problem=kreska pseudotaktowa	!	!	!	!	!
.	.	.	.	.	.	.	.	2D\	-lun-	2d\	-lun-	2.f\	.	.	.
=7-	=7-	=7-	=7-	=7-	=7-	=7-	=7-	=7-	=7-	=7-	=7-	=7-	=7-	=7-	=7-
*	*	*	*	*	*	*	*	*	*	*	*	*	*	*2\right	*
!LO:TX:t=P:problem=kreska pseudotaktowa	!	!LO:TX:t=P:problem=kreska pseudotaktowa	!	!LO:TX:t=P:problem=kreska pseudotaktowa	!	!LO:TX:t=P:problem=kreska pseudotaktowa	!	!	!	!	!	!	!	!	!
00r	.	00r	.	00r	.	00r	.	2.A\	-ta-	2.c\	-ta-	.	.	2cc\	-lun-
.	.	.	.	.	.	.	.	.	.	.	.	8e\L	.	.	.
.	.	.	.	.	.	.	.	.	.	.	.	8d\J	.	.	.
.	.	.	.	.	.	.	.	.	.	.	.	4e\	.	1cc\	-ta-
!	!	!	!	!	!	!	!	!	!	!	!	!LO:TX:t=P:problem=kreska pseudotaktowa	!	!	!
.	.	.	.	.	.	.	.	8G\L	.	4d\	.	4f\	.	.	.
!	!	!	!	!	!	!	!	!LO:TX:t=P:problem=kreska pseudotaktowa	!	!	!	!	!	!	!
.	.	.	.	.	.	.	.	8F\J	.	.	.	.	.	.	.
!	!	!	!	!	!	!	!	!	!	!	!	!LO:TX:t=P:problem=2.g poprawione na 2	!	!	!
.	.	.	.	.	.	.	.	4E\	.	2e\	.	2g\	-nae	.	.
.	.	.	.	.	.	.	.	4F\	.	.	.	.	.	.	.
!	!	!	!	!	!	!	!	!	!	!	!	!	!	!LO:TX:t=P::problem=kreska pseudotaktowa&colon;między nutą a kropką	!
.	.	.	.	.	.	.	.	2.G\	.	4d\	.	2.g\	.	(>2.b\	.
!	!	!	!	!	!	!	!	!	!	!LO:TX:t=P:problem=kreska pseudotaktowa	!	!	!	!	!
.	.	.	.	.	.	.	.	.	.	4c\	.	.	.	.	.
=8-	=8-	=8-	=8-	=8-	=8-	=8-	=8-	=8-	=8-	=8-	=8-	=8-	=8-	=8-	=8-
.	.	.	.	.	.	.	.	.	.	4d\	.	.	.	.	.
.	.	.	.	.	.	.	.	4A\	.	4c\	.	2e\	Vo-	4a\)	.
.	.	.	.	.	.	.	.	2F\	.	4c\	.	.	.	1a\	.
!	!	!	!	!	!	!	!	!	!	!	!	!LO:TX:t=P:problem=kreska pseudotaktowa	!	!	!
.	.	.	.	.	.	.	.	.	.	8B\L	.	4d\	-lun-	.	.
!	!	!	!	!	!	!	!	!	!	!LO:TX:t=P:problem=kreska pseudotaktowa	!	!	!	!	!
.	.	.	.	.	.	.	.	.	.	8A\J	.	.	.	.	.
*	*	*	*	*	*	*	*	*lig	*	*	*	*	*	*	*
.	.	.	.	.	.	.	.	1E\	-tis	1B\	.	1e\	-ta-	.	.
.	.	.	.	.	.	.	.	.	.	.	.	.	.	2g#X\	-tis
=9-	=9-	=9-	=9-	=9-	=9-	=9-	=9-	=9-	=9-	=9-	=9-	=9-	=9-	=9-	=9-
!	!	!	!	!	!	!	!	!LO:TX:t=P:problem=kreska pseudotaktowa	!	!LO:TX:t=P:problem=kreska pseudotaktowa	!	!LO:TX:t=P:problem=kreska pseudotaktowa	!	!LO:TX:t=P:problem=kreska pseudotaktowa	!
2r	.	1A\	Lau-	1e\	lau-	1cc\	Lau-	1AA/	.	1A\	-tis	1e\	-tis	1a\	.
*2\right	*	*	*	*	*	*	*	*	*	*	*	*	*	*	*
2A\	Lau-	.	.	.	.	.	.	.	.	.	.	.	.	.	.
*	*	*2\right	*	*2\right	*	*2\right	*	*Xlig	*	*	*	*	*	*	*
2G#X\	-da-	2B\	-da-	2e\	-da-	2b\	-da-	1r	.	1r	.	1r	.	1r	.
!LO:TX:t=P:problem=kreska pseudotaktowa	!	!	!	!	!	!	!	!	!	!	!	!	!	!	!
2A\	-mus	2c\	-mus	2e\	-mus	2a\	-mus	.	.	.	.	.	.	.	.
=10-	=10-	=10-	=10-	=10-	=10-	=10-	=10-	=10-	=10-	=10-	=10-	=10-	=10-	=10-	=10-
!	!	!LO:TX:t=P:problem=kreska pseudotaktowa	!	!LO:TX:t=P:problem=kreska pseudotaktowa	!	!LO:TX:t=P:problem=kreska pseudotaktowa	!	!	!	!	!	!	!	!	!
1E\	te	1B\	te	1e\	te	1g#X\	te	2r	.	2r	.	2r	.	2r	.
!	!	!	!	!	!	!	!	!LO:TX:t=P:problem=kreska pseudotaktowa	!	!LO:TX:t=P:problem=kreska pseudotaktowa	!	!LO:TX:t=P:problem=kreska pseudotaktowa	!	!LO:TX:t=P:problem=kreska pseudotaktowa	!
.	.	.	.	.	.	.	.	2E\	be-	2B\	be-	2e\	be-	2g#X/	be-
!	!	!	!	!	!	!LO:LB:g=original	!	!	!	!	!	!	!	!	!
!LO:TX:t=P:problem=kreska pseudotaktowa	!	!LO:TX:t=P:problem=kreska pseudotaktowa	!	!	!	!LO:TX:t=P:problem=kreska pseudotaktowa	!	!LO:LB:g=original	!	!	!	!	!	!	!
0r	.	0r	.	0r	.	0r	.	2E\	-ne-	2B\	-ne-	2e\	-ne-	2g#/	-ne-
.	.	.	.	.	.	.	.	2.C#X/	-di-	2.A/	-di-	2.e\	-di-	2.a\	-di-
=11-	=11-	=11-	=11-	=11-	=11-	=11-	=11-	=11-	=11-	=11-	=11-	=11-	=11-	=11-	=11-
.	.	.	.	.	.	.	.	.	.	.	.	.	.	.	.
.	.	.	.	.	.	.	.	4C#/	-ci-	4A/	-ci-	4e\	-ci-	4a\	-ci-
!	!	!	!	!	!	!	!	!	!	!	!	!	!	!LO:TX:t=P:problem=kreska pseudotaktowa	!
.	.	.	.	.	.	.	.	2D/	-mus	2A/	-mus	2d\	-mus	2f/	-mus
!	!	!	!	!	!	!	!	!LO:TX:t=P:problem=kreska pseudotaktowa	!	!LO:TX:t=P:problem=kreska pseudotaktowa	!	!LO:TX:t=P:problem=kreska pseudotaktowa	!	!LO:TX:t=P:problem=kreska pseudotaktowa	!
2r	.	2r	.	2r	.	2r	.	0AA/	te	0A\	te	0c#X\	te	0e/	te
1A\	A-	1c#X\	A-	1e\	a-	1a\	A-	.	.	.	.	.	.	.	.
=12-	=12-	=12-	=12-	=12-	=12-	=12-	=12-	=12-	=12-	=12-	=12-	=12-	=12-	=12-	=12-
.	.	.	.	.	.	.	.	.	.	.	.	.	.	.	.
!LO:TX:t=P:problem=kreska pseudotaktowa	!	!LO:TX:t=P:problem=kreska pseudotaktowa	!	!LO:TX:t=P:problem=kreska pseudotaktowa	!	!LO:TX:t=P:problem=kreska pseudotaktowa	!	!	!	!	!	!	!	!	!
2A\	-do-	2c#\	-do-	2e\	-do-	2a\	-do-	.	.	.	.	.	.	.	.
!	!	!LO:LB:g=original	!	!	!	!	!	!	!	!LO:TX:t=P:problem=kreska pseudotaktowa	!	!	!	!	!
2F#X\	-ra-	2d\	-ra-	2A/	-ra-	2a\	-ra-	1r	.	1r	.	1r	.	1r	.
!	!	!	!	!LO:TX:t=P:problem=kreska pseudotaktowa	!	!	!	!	!	!	!	!	!	!	!
2G\	-mus	2B\	-mus	2d\	-mus	2gny/	-mus	.	.	.	.	.	.	.	.
!	!	!	!	!LO:LB:g=original	!	!	!	!	!	!	!	!	!	!	!
!	!	!	!	!	!	!	!	!	!	!LO:PB:g=original	!	!	!	!	!
=13-	=13-	=13-	=13-	=13-	=13-	=13-	=13-	=13-	=13-	=13-	=13-	=13-	=13-	=13-	=13-
!LO:TX:t=P:problem=kreska pseudotaktowa	!	!LO:TX:t=P:problem=kreska pseudotaktowa	!	!LO:TX:t=P:problem=kreska pseudotaktowa	!	!LO:TX:t=P:problem=kreska pseudotaktowa	!	!	!	!	!	!	!	!	!
0D\	te	0A\	te	0d\	te	0f#X/	te	2r	.	2r	.	2r	.	2r	.
!	!	!	!	!	!	!	!	!LO:TX:t=P:problem=kreska pseudotaktowa	!	!LO:TX:t=P:problem=kreska pseudotaktowa	!	!LO:TX:t=P:problem=kreska pseudotaktowa	!	!LO:TX:t=P:problem=kreska pseudotaktowa	!
.	.	.	.	.	.	.	.	2D/	Glo-	2F#X/	Glo-	2d\	Glo-	2a\	Glo-
.	.	.	.	.	.	.	.	2.D/	-ri-	2.F#/	-ri-	2.d\	-ri-	2.a\	-ri-
!	!	!	!	!	!	!	!	!	!	!	!	!LO:TX:t=P:problem=kreska pseudotaktowa	!	!LO:TX:t=P:problem=kreska pseudotaktowa	!
.	.	.	.	.	.	.	.	4D/	-fi-	4F#/	-fi-	4d\	-fi-	4a\	-fi-
!	!	!	!	!	!	!	!	!	!	!	!	!	!	!LO:PB:g=original	!
=14-	=14-	=14-	=14-	=14-	=14-	=14-	=14-	=14-	=14-	=14-	=14-	=14-	=14-	=14-	=14-
1r	.	1r	.	1r	.	1r	.	2BB/	-ca-	2G/	-ca-	2d\	-ca-	2dd\	-ca-
!	!	!	!	!	!	!	!	!	!	!LO:TX:t=P:problem=kreska pseudotaktowa	!	!LO:TX:t=P:problem=kreska pseudotaktowa	!	!LO:TX:t=P:problem=kreska pseudotaktowa	!
!	!	!	!	!	!	!	!	!	!	!	!	!LO:PB:g=original	!	!	!
.	.	.	.	.	.	.	.	2Cny/	-mus	2G/	-mus	2e\	-mus	2cc\	.
!	!	!	!	!	!	!	!	!LO:TX:t=P:problem=kreska pseudotaktowa	!	!	!	!	!	!	!
2r	.	2r	.	2r	.	2r	.	0GG/	te	0G/	te	2.d\	te	2.b\	-mus
!LO:TX:t=P:problem=kreska pseudotaktowa	!	!LO:TX:t=P:problem=kreska pseudotaktowa	!	!LO:TX:t=P:problem=kreska pseudotaktowa	!	!LO:TX:t=P:problem=kreska pseudotaktowa	!	!	!	!	!	!	!	!	!
2G\	Glo-	2d\	Glo-	2g\	Glo-	2b\	Glo-	.	.	.	.	.	.	.	.
.	.	.	.	.	.	.	.	.	.	.	.	4cny/	.	4cc\	te
=15-	=15-	=15-	=15-	=15-	=15-	=15-	=15-	=15-	=15-	=15-	=15-	=15-	=15-	=15-	=15-
!	!	!	!	!	!	!	!	!	!	!	!	!LO:TX:t=P:problem=kreska pseudotaktowa	!	!LO:TX:t=P:problem=kreska pseudotaktowa	!
2.G\	-ri-	2.d\	-ri-	2.g\	-ri-	2.b\	-ri-	.	.	.	.	1B/	.	1dd\	.
4G\	-fi-	4d\	-fi-	4g\	-fi-	4b\	-fi-	.	.	.	.	.	.	.	.
!	!	!	!	!	!	!	!	!LO:TX:t=P:problem=kreska pseudotaktowa	!	!LO:TX:t=P:problem=kreska pseudotaktowa	!	!	!	!	!
2E\	-ca-	2e\	-ca-	2g\	-ca-	2cc\	-ca-	1r	.	1r	.	1r	.	1r	.
!LO:TX:t=P:problem=kreska pseudotaktowa	!	!LO:TX:t=P:problem=kreska pseudotaktowa	!	!	!	!	!	!	!	!	!	!	!	!	!
2Fny\	-mus	2cny\	-mus	2f\	-mus	2a\	-mus	.	.	.	.	.	.	.	.
=16-	=16-	=16-	=16-	=16-	=16-	=16-	=16-	=16-	=16-	=16-	=16-	=16-	=16-	=16-	=16-
!LO:TX:t=P:problem=kreska pseudotaktowa	!	!LO:TX:t=P:problem=kreska pseudotaktowa	!	!LO:TX:t=P:problem=kreska pseudotaktowa	!	!LO:TX:t=P:problem=kreska pseudotaktowa	!	!	!	!	!	!	!	!	!
0C/	te	0c\	te	0e\	te	0g\	te	2r	.	2r	.	2.c/	Gra-	2.ee\	Gra-
.	.	.	.	.	.	.	.	2.C/	Gra-	2.G/	Gra-	.	.	.	.
!	!	!	!	!	!	!	!	!	!	!	!	!LO:TX:t=P:problem=kreska pseudotaktowa	!	!LO:TX:t=P:problem=kreska pseudotaktowa	!
.	.	.	.	.	.	.	.	.	.	.	.	4c/	-ti-	4ee\	-ti-
.	.	.	.	.	.	.	.	.	.	.	.	4.e\	-as	2cc\	-as
.	.	.	.	.	.	.	.	4C/	-ti-	4G/	-ti-	.	.	.	.
.	.	.	.	.	.	.	.	.	.	.	.	8f\	.	.	.
!	!	!	!	!	!	!	!	!LO:TX:t=P:problem=kreska pseudotaktowa	!	!LO:TX:t=P:problem=kreska pseudotaktowa	!	!LO:TX:t=P:problem=kreska pseudotaktowa	!	!	!
.	.	.	.	.	.	.	.	2E\	-as	2G/	-as	2g\	.	2.cc\	a-
=17-	=17-	=17-	=17-	=17-	=17-	=17-	=17-	=17-	=17-	=17-	=17-	=17-	=17-	=17-	=17-
2r	.	2.F/	Gra-	2r	.	4r	.	2F\	a-	2A\	a-	2f\	a-	.	.
.	.	.	.	.	.	2a\	Gra-	.	.	.	.	.	.	4cc\	-gi-
!LO:TX:t=P::problem=kreska pseudotaktowa&colon;między nutą a kropką	!	!	!	!	!	!	!	!	!	!	!	!	!	!LO:TX:t=P:problem=kreska pseudotaktowa	!
2.FF/	Gra-	.	.	2.c/	Gra-	.	.	4F\	-gi-	4A\	-gi-	4f\	-gi-	2a\	-mus
!	!	!LO:TX:t=P:problem=kreska pseudotaktowa	!	!	!	!LO:TX:t=P:problem=kreska pseudotaktowa	!	!	!	!	!	!	!	!	!
.	.	4F/	-ti-	.	.	4a\	-ti-	4F\	-mus	4A\	-mus	4f\	-mus	.	.
.	.	2A\	-as	.	.	2cc\	-as	1FF/	ti-	1c\	ti-	1f\	ti-	1a\	ti-
4FF/	-ti-	.	.	4c/	-ti-	.	.	.	.	.	.	.	.	.	.
!LO:TX:t=P:problem=kreska pseudotaktowa	!	!	!	!LO:TX:t=P:problem=kreska pseudotaktowa	!	!	!	!	!	!	!	!	!	!	!
2AA/	-as	1c\	a-	2A/	-as	1cc\	a-	.	.	.	.	.	.	.	.
!LO:LB:g=original	!	!	!	!	!	!	!	!	!	!	!	!	!	!	!
=18-	=18-	=18-	=18-	=18-	=18-	=18-	=18-	=18-	=18-	=18-	=18-	=18-	=18-	=18-	=18-
!	!	!	!	!	!	!	!	!LO:TX:t=P:problem=kreska pseudotaktowa	!	!LO:TX:t=P:problem=kreska pseudotaktowa	!	!LO:TX:t=P:problem=kreska pseudotaktowa	!	!LO:TX:t=P:problem=kreska pseudotaktowa	!
2C/	a-	.	.	2e\	a-	.	.	1C/	-bi	1c\	-bi	1e\	-bi	1gny\	-bi
4C/	-gi-	4G/	-gi-	4e\	-gi-	4cc\	-gi-	.	.	.	.	.	.	.	.
!LO:TX:t=P:problem=kreska pseudotaktowa	!	!LO:TX:t=P:problem=kreska pseudotaktowa	!	!LO:TX:t=P:problem=kreska pseudotaktowa	!	!LO:TX:t=P:problem=kreska pseudotaktowa	!	!	!	!	!	!	!	!	!
4C/	-mus	4G/	-mus	4e\	-mus	4cc\	-mus	.	.	.	.	.	.	.	.
1GG/	ti-	1G/	ti-	4d\	ti-	4b\	ti-	2r	.	2r	.	2r	.	2r	.
.	.	.	.	4c\	.	4a\	.	.	.	.	.	.	.	.	.
.	.	.	.	4B/	.	4b\	.	1G\	prop-	1d\	prop-	1g\	prop-	1b\	prop-
!	!	!	!	!LO:TX:t=P:problem=kreska pseudotaktowa	!	!	!	!	!	!	!	!	!	!	!
.	.	.	.	4A/	.	4cc\	.	.	.	.	.	.	.	.	.
=19-	=19-	=19-	=19-	=19-	=19-	=19-	=19-	=19-	=19-	=19-	=19-	=19-	=19-	=19-	=19-
!LO:TX:t=P:problem=kreska pseudotaktowa	!	!LO:TX:t=P:problem=kreska pseudotaktowa	!	!	!	!	!	!	!	!	!	!	!	!	!
1GG/	-bi	1G/	-bi	1B/	-bi	2dd\	.	.	.	.	.	.	.	.	.
!	!	!	!	!	!	!LO:TX:t=P:problem=kreska pseudotaktowa	!	!	!	!LO:TX:t=P:problem=kreska pseudotaktowa	!	!LO:TX:t=P:problem=kreska pseudotaktowa	!	!LO:TX:t=P:problem=kreska pseudotaktowa	!
.	.	.	.	.	.	2dd\	-bi	2G\	-ter	2d\	-ter	2g\	-ter	2b\	-ter
!	!	!	!	!	!	!	!	!	!	!	!	!	!	!LO:TX:t=P:problem=kreska pseudotaktowa	!
2r	.	2r	.	2A/	prop-	2r	.	1F\	ma-	2D/	Ma-	2.a\	ma-	1dd\	ma-
1D\	prop-	1F/	prop-	1d\	-ter	1a\	prop-	.	.	4D/	-gnam	.	.	.	.
!	!	!	!	!	!	!	!	!	!	!LO:TX:t=P:problem=kreska pseudotaktowa	!	!	!	!	!
.	.	.	.	.	.	.	.	.	.	4E/	.	4g\	.	.	.
=20-	=20-	=20-	=20-	=20-	=20-	=20-	=20-	=20-	=20-	=20-	=20-	=20-	=20-	=20-	=20-
!	!	!	!	!	!	!	!	!LO:TX:t=P:problem=kreska pseudotaktowa	!	!	!	!	!	!	!
.	.	.	.	.	.	.	.	1D\	-gnam	4Fny/	.	2f\	.	2a\	-gnam
.	.	.	.	.	.	.	.	.	.	4G/	.	.	.	.	.
!LO:TX:t=P:problem=kreska pseudotaktowa	!	!LO:TX:t=P:problem=kreska pseudotaktowa	!	!LO:TX:t=P:problem=kreska pseudotaktowa	!	!LO:TX:t=P:problem=kreska pseudotaktowa	!	!	!	!	!	!LO:TX:t=P:problem=kreska pseudotaktowa	!	!	!
2D/	-ter	2F/	-ter	2d\	.	2dd\	-ter	.	.	4A\	.	2f\	-gnam	2.a\	.
!	!	!	!	!	!	!	!	!	!	!LO:TX:t=P:problem=kreska pseudotaktowa	!	!	!	!	!
.	.	.	.	.	.	.	.	.	.	4B\	.	.	.	.	.
!	!	!	!	!	!	!LO:LB:g=original	!	!	!	!	!	!	!	!	!
1C/	ma-	1E/	ma-	2r	.	4ee\	Ma-	1.A\	glo-	2c\	.	2r	.	.	.
.	.	.	.	.	.	4dd\	.	.	.	.	.	.	.	4b\	.
.	.	.	.	2.c/	Ma-	4cc\	.	.	.	2.c\	glo-	2.e\	glo-	4cc\	.
!	!	!	!	!	!	!LO:TX:t=P:problem=kreska pseudotaktowa	!	!	!	!	!	!	!	!LO:TX:t=P:problem=kreska pseudotaktowa	!
.	.	.	.	.	.	4b\	.	.	.	.	.	.	.	4dd\	.
=21-	=21-	=21-	=21-	=21-	=21-	=21-	=21-	=21-	=21-	=21-	=21-	=21-	=21-	=21-	=21-
!LO:TX:t=P:problem=kreska pseudotaktowa	!	!LO:TX:t=P:problem=kreska pseudotaktowa	!	!	!	!	!	!	!	!	!	!	!	!	!
1AA/	-gnam	1E/	-gnam	.	.	1cc\	.	.	.	.	.	.	.	1.ee\	glo-
.	.	.	.	4A/	.	.	.	.	.	4c\	-ri-	4e\	-ri-	.	.
!	!	!	!	!	!	!	!	!	!	!LO:TX:t=P::problem=kreska pseudotaktowa&colon;między nutą a kropką	!	!	!	!	!
.	.	.	.	4c\	.	.	.	4A\	-ri-	2.c\	-am	1a\	-am	.	.
!	!	!	!	!LO:TX:t=P:problem=kreska pseudotaktowa	!	!	!	!LO:TX:t=P:problem=kreska pseudotaktowa	!	!	!	!	!	!	!
.	.	.	.	4d\	.	.	.	4A\	-am	.	.	.	.	.	.
!	!	!	!	!	!	!	!	!LO:PB:g=original	!	!	!	!	!	!	!
1.A\	glo-	2r	.	2e\	.	2cc\	-gnam	0AA/	tu-	.	.	.	.	.	.
.	.	.	.	.	.	.	.	.	.	4B\	.	.	.	.	.
!	!	!	!	!LO:TX:t=P:problem=kreska pseudotaktowa	!	!	!	!	!	!	!	!	!	!LO:TX:t=P:problem=kreska pseudotaktowa	!
.	.	2.c\	glo-	2e\	-gnam	1ee\	glo-	.	.	4A\	.	2.e\	glo-	2cc\	-ri-
.	.	.	.	.	.	.	.	.	.	4G\	.	.	.	.	.
!	!	!	!	!LO:LB:g=original	!	!	!	!	!	!	!	!	!	!	!
=22-	=22-	=22-	=22-	=22-	=22-	=22-	=22-	=22-	=22-	=22-	=22-	=22-	=22-	=22-	=22-
.	.	.	.	2A/	glo-	.	.	.	.	2A\	.	.	.	2cc\	-am
.	.	4c\	-ri-	.	.	.	.	.	.	.	.	4e\	-ri-	.	.
!	!	!	!	!	!	!	!	!	!	!	!	!LO:TX:t=P:problem=kreska pseudotaktowa	!	!	!
4A\	-ri-	2c\	-am	2e\	-ri-	4cc\	-ri-	.	.	2.E/	tu-	2e\	-am	1a\	tu-
!LO:TX:t=P:problem=kreska pseudotaktowa	!	!	!	!	!	!LO:TX:t=P:problem=kreska pseudotaktowa	!	!	!	!	!	!	!	!	!
4A\	-am	.	.	.	.	4a\	.	.	.	.	.	.	.	.	.
!	!	!	!	!LO:TX:t=P:problem=kreska pseudotaktowa	!	!	!	!LO:SIC:v:s=0E	!	!	!	!	!	!	!
!	!	!	!	!	!	!	!	!LO:TX:t=P:problem=kreska pseudotaktowa	!	!	!	!	!	!	!
0E\	tu-	0B\	tu-	1e\	-am	1.b\	-am	0D\	-am	.	.	1e\	tu-	.	.
!	!	!	!	!	!	!	!	!	!	!LO:TX:t=P:problem=# below	!	!	!	!	!
.	.	.	.	.	.	.	.	.	.	4F#X/	.	.	.	.	.
!	!	!	!	!	!	!	!	!	!	!LO:LB:g=original	!	!	!	!	!
.	.	.	.	.	.	.	.	.	.	4G#X/	.	.	.	4g#X/	.
!	!	!	!	!	!	!	!	!	!	!LO:TX:t=P:problem=kreska pseudotaktowa	!	!	!	!LO:TX:t=P:problem=kreska pseudotaktowa	!
.	.	.	.	.	.	.	.	.	.	4A/	.	.	.	4f#X/	.
=23-	=23-	=23-	=23-	=23-	=23-	=23-	=23-	=23-	=23-	=23-	=23-	=23-	=23-	=23-	=23-
!	!	!	!	!	!	!	!	!	!	!	!	!LO:TX:t=P:problem=kreska pseudotaktowa	!	!	!
.	.	.	.	1e\	tu-	.	.	.	.	2B\	.	1e\	-am	1g#X\	.
!	!	!	!	!	!	!LO:TX:t=P::problem=kreska pseudotaktowa&colon;między nutą a kropką	!	!	!	!LO:TX:t=P:problem=kreska pseudotaktowa	!	!	!	!	!
.	.	.	.	.	.	2.ee\	tu-	.	.	2E/	-am	.	.	.	.
!LO:TX:t=P:problem=kreska pseudotaktowa	!	!LO:TX:t=P:problem=kreska pseudotaktowa	!	!LO:TX:t=P:problem=kreska pseudotaktowa	!	!	!	!	!	!	!	!LO:LB:g=original	!	!	!
0AA/	-am	0A\	-am	0e\	-am	.	.	2r	.	2r	.	1c\	Do-	2a\	-am
.	.	.	.	.	.	4dd\	.	.	.	.	.	.	.	.	.
.	.	.	.	.	.	4cc\	.	2.A\	Do-	2.c\	Do-	.	.	2.e/	Do-
.	.	.	.	.	.	4b\	.	.	.	.	.	.	.	.	.
=24-	=24-	=24-	=24-	=24-	=24-	=24-	=24-	=24-	=24-	=24-	=24-	=24-	=24-	=24-	=24-
!	!	!	!	!	!	!LO:TX:t=P:problem=kreska pseudotaktowa	!	!	!	!	!	!	!	!	!
.	.	.	.	.	.	1a\	-am	.	.	.	.	2c/	-mi-	.	.
.	.	.	.	.	.	.	.	4A\	-mi-	4A/	-mi-	.	.	4e/	-mi-
!	!	!	!	!	!	!	!	!	!	!	!	!	!	!LO:LB:g=original	!
!	!	!	!	!	!	!	!	!LO:TX:t=P:problem=kreska pseudotaktowa	!	!LO:TX:t=P:problem=kreska pseudotaktowa	!	!LO:TX:t=P:problem=kreska pseudotaktowa	!	!LO:TX:t=P:problem=kreska pseudotaktowa	!
.	.	.	.	.	.	.	.	2A\	-ne	2c\	-ne	2c/	-ne	2e/	-ne
!	!	!LO:LB:g=original	!	!	!	!	!	!	!	!	!	!	!	!	!
00r	.	00r	.	00r	.	00r	.	2G\	DE-	2B\	DE-	4d\	DE-	1gny\	DE-
.	.	.	.	.	.	.	.	.	.	.	.	4c\	.	.	.
!	!	!	!	!	!	!	!	!LO:TX:t=P:problem=kreska pseudotaktowa	!	!	!	!	!	!	!
.	.	.	.	.	.	.	.	2G\	-us	2B\	-us	4d\	.	.	.
.	.	.	.	.	.	.	.	.	.	.	.	4e\	.	.	.
=25-	=25-	=25-	=25-	=25-	=25-	=25-	=25-	=25-	=25-	=25-	=25-	=25-	=25-	=25-	=25-
!	!	!	!	!	!	!	!	!	!	!	!	!	!	!LO:TX:t=P:problem=kreska pseudotaktowa	!
.	.	.	.	.	.	.	.	2.F\	Rex	4c\	Rex	2f\	.	1a\	-us
.	.	.	.	.	.	.	.	.	.	4B\	.	.	.	.	.
!	!	!	!	!	!	!	!	!	!	!	!	!LO:TX:t=P:problem=kreska pseudotaktowa	!	!	!
.	.	.	.	.	.	.	.	.	.	4c\	.	2f\	-us	.	.
!	!	!	!	!	!	!	!	!	!	!LO:TX:t=P:problem=kreska pseudotaktowa	!	!	!	!	!
.	.	.	.	.	.	.	.	8E\L	.	4d\	.	.	.	.	.
!	!	!	!	!	!	!	!	!LO:TX:t=P:problem=kreska pseudotaktowa	!	!	!	!	!	!	!
.	.	.	.	.	.	.	.	8D\J	.	.	.	.	.	.	.
.	.	.	.	.	.	.	.	4C\	.	1.e\	Cae-	1.g\	Rex	1.cc\	Rex
.	.	.	.	.	.	.	.	4D\	.	.	.	.	.	.	.
.	.	.	.	.	.	.	.	4E\	.	.	.	.	.	.	.
.	.	.	.	.	.	.	.	4F\	.	.	.	.	.	.	.
=26-	=26-	=26-	=26-	=26-	=26-	=26-	=26-	=26-	=26-	=26-	=26-	=26-	=26-	=26-	=26-
.	.	.	.	.	.	.	.	2G\	.	.	.	.	.	.	.
!	!	!	!	!	!	!	!	!	!	!	!	!LO:TX:t=P:problem=kreska pseudotaktowa	!	!LO:TX:t=P:problem=kreska pseudotaktowa	!
.	.	.	.	.	.	.	.	2GG/	Cae-	2d\	.	2g\	Cae-	2b\	Cae-
!	!	!LO:TX:t=P:problem=kreska pseudotaktowa	!	!LO:TX:t=P:problem=kreska pseudotaktowa	!	!LO:TX:t=P:problem=kreska pseudotaktowa	!	!LO:TX:t=P:problem=kreska pseudotaktowa	!	!	!	!	!	!	!
1r	.	1r	.	1r	.	1r	.	1AA/	-le-	1c\	-le-	1e\	-le-	1a\	-le-
=27-	=27-	=27-	=27-	=27-	=27-	=27-	=27-	=27-	=27-	=27-	=27-	=27-	=27-	=27-	=27-
!	!	!	!	!	!	!	!	!LO:TX:t=P:problem=kreska pseudotaktowa	!	!LO:TX:t=P:problem=kreska pseudotaktowa	!	!LO:TX:t=P:problem=kreska pseudotaktowa	!	!LO:TX:t=P:problem=kreska pseudotaktowa	!
2r	.	2r	.	2r	.	2r	.	1E\	-ſtis	1B\	-ſtis	1e\	-ſtis	1g#X\	-ſtis
1E\	DE-	1B\	DE-	1e\	DE-	1g#X\	DE-	.	.	.	.	.	.	.	.
.	.	.	.	.	.	.	.	00r	.	00r	.	00r	.	00r	.
!LO:TX:t=P:problem=kreska pseudotaktowa	!	!LO:TX:t=P:problem=kreska pseudotaktowa	!	!LO:TX:t=P:problem=kreska pseudotaktowa	!	!LO:TX:t=P:problem=kreska pseudotaktowa	!	!	!	!	!	!	!	!	!
2C#X/	-us	2A/	-us	2e\	-us	2a\	-us	.	.	.	.	.	.	.	.
=28-	=28-	=28-	=28-	=28-	=28-	=28-	=28-	=28-	=28-	=28-	=28-	=28-	=28-	=28-	=28-
1D\	Pa-	1A\	Pa-	1d\	Pa-	1fny/	Pa-	.	.	.	.	.	.	.	.
2AA/	-ter	2A/	-ter	2c\	-ter	2e/	-ter	.	.	.	.	.	.	.	.
!LO:TX:t=P:problem=kreska pseudotaktowa	!	!LO:TX:t=P:problem=kreska pseudotaktowa	!	!LO:TX:t=P:problem=kreska pseudotaktowa	!	!LO:TX:t=P:problem=kreska pseudotaktowa	!	!	!	!	!	!	!	!	!
2Cny/	o-	2A/	o-	2e\	o-	2a\	o-	.	.	.	.	.	.	.	.
=29-	=29-	=29-	=29-	=29-	=29-	=29-	=29-	=29-	=29-	=29-	=29-	=29-	=29-	=29-	=29-
2.BB/	-mni-	2A/	-mni-	2.d\	-mni-	2.b\	-mni-	.	.	.	.	.	.	.	.
.	.	2G#X/	-po-	.	.	.	.	.	.	.	.	.	.	.	.
4BB/	-po-	.	.	4d\	-po-	4b\	-po-	.	.	.	.	.	.	.	.
!LO:TX:t=P:problem=kreska pseudotaktowa	!	!LO:TX:t=P:problem=kreska pseudotaktowa	!	!LO:TX:t=P:problem=kreska pseudotaktowa	!	!LO:TX:t=P:problem=kreska pseudotaktowa	!	!	!	!	!	!	!	!	!
1AA/	-tens	1A\	-tens	1c#X\	-tens	1e/	-tens	2r	.	2r	.	2r	.	2r	.
.	.	.	.	.	.	.	.	1A\	DE-	1c#X\	DE-	1e\	DE-	1a\	DE-
=30-	=30-	=30-	=30-	=30-	=30-	=30-	=30-	=30-	=30-	=30-	=30-	=30-	=30-	=30-	=30-
00r	.	00r	.	00r	.	00r	.	.	.	.	.	.	.	.	.
!	!	!	!	!	!	!	!	!LO:TX:t=P:problem=kreska pseudotaktowa	!	!LO:TX:t=P:problem=kreska pseudotaktowa	!	!LO:TX:t=P:problem=kreska pseudotaktowa	!	!LO:TX:t=P:problem=kreska pseudotaktowa	!
.	.	.	.	.	.	.	.	2F#X\	-us	2d\	-us	2A/	-us	2a\	-us
.	.	.	.	.	.	.	.	1G\	Pa-	1B\	Pa-	1d\	Pa-	1gny\	Pa-
=31-	=31-	=31-	=31-	=31-	=31-	=31-	=31-	=31-	=31-	=31-	=31-	=31-	=31-	=31-	=31-
.	.	.	.	.	.	.	.	2D\	-ter	2A\	-ter	2d\	-ter	2fny/	-ter
!	!	!	!	!	!	!	!	!LO:TX:t=P:problem=kreska pseudotaktowa	!	!LO:TX:t=P:problem=kreska pseudotaktowa	!	!LO:TX:t=P:problem=kreska pseudotaktowa	!	!LO:TX:t=P:problem=kreska pseudotaktowa	!
.	.	.	.	.	.	.	.	2Fny\	o-	2A\	o-	2d\	o-	2a\	o-
.	.	.	.	.	.	.	.	2.E\	-mni-	2B\	-mni-	2d\	-mni-	2.g/	-mni-
.	.	.	.	.	.	.	.	.	.	2Gny/	-po-	2c#X\	-po-	.	.
.	.	.	.	.	.	.	.	4E\	-po-	.	.	.	.	4g/	-po-
=32-	=32-	=32-	=32-	=32-	=32-	=32-	=32-	=32-	=32-	=32-	=32-	=32-	=32-	=32-	=32-
!	!	!	!	!	!	!	!	!LO:TX:t=P:problem=kreska pseudotaktowa	!	!LO:TX:t=P:problem=kreska pseudotaktowa	!	!LO:TX:t=P:problem=kreska pseudotaktowa	!	!LO:TX:t=P:problem=kreska pseudotaktowa	!
2r	.	2r	.	2r	.	2r	.	1D\	-tens	1A\	-tens	1d\	-tens	1f#X/	-tens
2.D/	Do-	2.F#X/	Do-	2.d\	Do-	2.a\	Do-	.	.	.	.	.	.	.	.
!	!	!	!	!	!	!	!	!	!	!	!	!LO:TX:t=P:problem=kreska pseudotaktowa	!	!	!
!	!	!	!	!	!	!	!	!	!	!	!	!LO:TX:a:t=2	!	!	!
.	.	.	.	.	.	.	.	0r	.	0r	.	0r	.	0r	.
!	!	!	!	!	!	!LO:N:acc=#	!	!	!	!	!	!	!	!	!
!	!	!	!	!	!	!LO:TX:t=P:problem=# above	!	!	!	!	!	!	!	!	!
4BB/	-mi-	4Gny/	-mi-	4d\	-mi-	4bnX\	-mi-	.	.	.	.	.	.	.	.
!LO:LB:g=original	!	!	!	!	!	!	!	!	!	!	!	!	!	!	!
!LO:TX:t=P:problem=kreska pseudotaktowa	!	!LO:TX:t=P:problem=kreska pseudotaktowa	!	!LO:TX:t=P:problem=kreska pseudotaktowa	!	!LO:TX:t=P:problem=kreska pseudotaktowa	!	!	!	!	!	!	!	!	!
2C/	-ne	(4E/	-ne	2e\	-e	2gny/	-ne	.	.	.	.	.	.	.	.
!	!	!LO:TX:t=P:rytm:problem	!	!	!	!	!	!	!	!	!	!	!	!	!
!	!	!LO:N:vis=4	!	!	!	!	!	!	!	!	!	!	!	!	!
.	.	2G/)	Fi-	.	.	.	.	.	.	.	.	.	.	.	.
=33-	=33-	=33-	=33-	=33-	=33-	=33-	=33-	=33-	=33-	=33-	=33-	=33-	=33-	=33-	=33-
!	!	!	!	!	!	!LO:TX:t=P:problem=kropka pod nutą (?)	!	!	!	!	!	!	!	!	!
1AA/	Fi-	.	.	4.cny/	Fi-	1cc\	Fi-	.	.	.	.	.	.	.	.
.	.	8F#X/L	.	.	.	.	.	.	.	.	.	.	.	.	.
.	.	8E/J	.	8B/	.	.	.	.	.	.	.	.	.	.	.
!	!	!LO:TX:t=P:problem=kreska pseudotaktowa	!	!	!	!	!	!	!	!	!	!	!	!	!
.	.	2F#X/	-li	2A/	-li	.	.	.	.	.	.	.	.	.	.
!LO:TX:t=P:problem=kreska pseudotaktowa	!	!LO:TX:t=P:problem=kreska pseudotaktowa	!	!LO:TX:t=P:problem=kreska pseudotaktowa	!	!LO:TX:t=P:problem=kreska pseudotaktowa	!	!	!	!	!	!	!	!	!
1GG/	-li	1G/	.	1d\	.	1b\	-li	2r	.	2r	.	2r	.	2r	.
!	!	!	!	!	!	!	!	!	!	!LO:TX:t=P::problem=kreska pseudotaktowa&colon;między nutą a kropką	!	!	!	!	!
.	.	.	.	.	.	.	.	2.G\	Do-	(2.B\	Do-	2.d\	Do-	2.g\	Do-
!	!	!	!	!	!	!LO:PB:g=original	!	!	!	!	!	!	!	!	!
=34-	=34-	=34-	=34-	=34-	=34-	=34-	=34-	=34-	=34-	=34-	=34-	=34-	=34-	=34-	=34-
!	!	!	!	!LO:TX:t=P:problem=kreska pseudotaktowa	!	!	!	!	!	!	!	!	!	!	!
!	!	!	!	!LO:TX:a:t=Verte	!	!	!	!	!	!	!	!	!	!	!
0r	.	0r	.	0r	.	1r	.	.	.	.	.	.	.	.	.
.	.	.	.	.	.	.	.	4E\	-mi-	4cny\)	-mi-	4e\	-mi-	4g\	-mi-
!	!	!	!	!	!	!	!	!LO:TX:t=P:problem=kreska pseudotaktowa	!	!	!	!LO:TX:t=P:problem=kreska pseudotaktowa	!	!LO:TX:t=P:problem=kreska pseudotaktowa	!
.	.	.	.	.	.	.	.	2F\	-ne	4A\	-ne	2cny/	-ne	2a\	-ne
.	.	.	.	.	.	.	.	.	.	2c\	Fi-	.	.	.	.
!	!	!	!	!	!	!	!	!LO:LB:g=original	!	!	!	!	!	!	!
.	.	.	.	.	.	4r	.	1D\	Fi-	.	.	1d\	Fi-	1fny/	Fi-
.	.	.	.	.	.	2d/	V-	.	.	8B\L	.	.	.	.	.
.	.	.	.	.	.	.	.	.	.	8A\J	.	.	.	.	.
!	!	!	!	!	!	!	!	!	!	!LO:TX:t=P:problem=kreska pseudotaktowa	!	!	!	!	!
.	.	.	.	.	.	.	.	.	.	2B\	.	.	.	.	.
!	!	!	!	!	!	!LO:TX:t=P:problem=kreska pseudotaktowa	!	!	!	!	!	!	!	!	!
.	.	.	.	.	.	4d/	-ni-	.	.	.	.	.	.	.	.
!	!	!	!	!LO:PB:g=original	!	!	!	!	!	!LO:LB:g=original	!	!	!	!	!
=35-	=35-	=35-	=35-	=35-	=35-	=35-	=35-	=35-	=35-	=35-	=35-	=35-	=35-	=35-	=35-
!	!	!LO:TX:t=P:problem=kreska pseudotaktowa	!	!	!	!	!	!	!	!	!	!	!	!	!
!	!	!LO:TX:a:t=Verte Cit[o]	!	!	!	!	!	!LO:TX:t=P:problem=kreska pseudotaktowa	!	!LO:TX:t=P:problem=kreska pseudotaktowa	!	!LO:TX:t=P:problem=kreska pseudotaktowa	!	!LO:TX:t=P:problem=kreska pseudotaktowa	!
2r	.	1r	.	2.c\	V-	4e/	-ge-	1C/	-li	1c\	-li	1G/	-li	1e/	-li
.	.	.	.	.	.	4d/	.	.	.	.	.	.	.	.	.
2.C/	V-	.	.	.	.	4e/	.	.	.	.	.	.	.	.	.
!	!	!	!	!LO:TX:t=P:problem=kreska pseudotaktowa	!	!	!	!	!	!	!	!	!	!	!
.	.	.	.	4d\	.	4f/	.	.	.	.	.	.	.	.	.
!	!	!LO:PB:g=original	!	!	!	!	!	!	!	!	!	!	!	!	!
.	.	2.G/	V-	4e\	.	2g/	.	00r	.	00r	.	00r	.	00r	.
4D\	.	.	.	4f\	.	.	.	.	.	.	.	.	.	.	.
!	!	!	!	!LO:TX:t=P:problem=kreska pseudotaktowa	!	!LO:TX:t=P:problem=kreska pseudotaktowa	!	!	!	!	!	!	!	!	!
4E\	.	.	.	2g\	-ni-	2e/	-ni-	.	.	.	.	.	.	.	.
!LO:TX:t=P:problem=kreska pseudotaktowa	!	!LO:TX:t=P:problem=kreska pseudotaktowa	!	!	!	!	!	!	!	!	!	!	!	!	!
4F\	.	4A\	.	.	.	.	.	.	.	.	.	.	.	.	.
=36-	=36-	=36-	=36-	=36-	=36-	=36-	=36-	=36-	=36-	=36-	=36-	=36-	=36-	=36-	=36-
2G\	.	4.B\	.	2g\	-ge-	4d/	-te	.	.	.	.	.	.	.	.
.	.	.	.	.	.	4dd\	V-	.	.	.	.	.	.	.	.
.	.	8c\	.	.	.	.	.	.	.	.	.	.	.	.	.
!LO:TX:t=P:problem=kreska pseudotaktowa	!	!	!	!	!	!LO:TX:t=P:problem=kreska pseudotaktowa	!	!	!	!	!	!	!	!	!
2G\	-ni-	4d\	.	1g\	-ni-	2b\	-ni-	.	.	.	.	.	.	.	.
!	!	!LO:TX:t=P:problem=kreska pseudotaktowa	!	!	!	!	!	!	!	!	!	!	!	!	!
.	.	4e\	-ni-	.	.	.	.	.	.	.	.	.	.	.	.
2.A\	-ge-	2.c\	-ge-	.	.	2.cc\	-ge-	.	.	.	.	.	.	.	.
.	.	.	.	2f#X\	-te	.	.	.	.	.	.	.	.	.	.
4A\	-ni-	4c\	-ni-	.	.	4cc\	-ni-	.	.	.	.	.	.	.	.
=37-	=37-	=37-	=37-	=37-	=37-	=37-	=37-	=37-	=37-	=37-	=37-	=37-	=37-	=37-	=37-
!LO:TX:t=P:problem=kreska pseudotaktowa	!	!LO:TX:t=P:problem=kreska pseudotaktowa	!	!LO:TX:t=P:problem=kreska pseudotaktowa	!	!LO:TX:t=P:problem=kreska pseudotaktowa	!	!	!	!	!	!	!	!	!
1G\	-te	1d\	-te	1g\	Je-	1b\	-te	.	.	.	.	.	.	.	.
!	!	!	!	!	!	!	!	!LO:TX:t=P:problem=kreska pseudotaktowa	!	!	!	!	!	!	!
2.GG/	Je-	1G/	Je-	1d\	-ſu	2.b\	Je-	1G\	Je-	1B\	Je-	1g\	Je-	2.dd\	Je-
!	!	!	!	!	!	!	!	!	!	!	!	!	!	!LO:TX:t=P:problem=kreska pseudotaktowa	!
4AA/	.	.	.	.	.	4cc\	.	.	.	.	.	.	.	4cc\	.
=38-	=38-	=38-	=38-	=38-	=38-	=38-	=38-	=38-	=38-	=38-	=38-	=38-	=38-	=38-	=38-
!	!	!LO:TX:t=P:problem=kreska pseudotaktowa	!	!	!	!	!	!	!	!LO:TX:t=P:problem=kreska pseudotaktowa	!	!LO:TX:t=P:problem=kreska pseudotaktowa	!	!	!
2BB/	-ſu	1G/	-ſu	1d\	Chri-	2dd\	-ſu	2GG/	-ſu	1B\	-ſu	1g\	-ſu	2b\	-ſu
!LO:TX:t=P:problem=kreska pseudotaktowa	!	!	!	!	!	!LO:TX:t=P:problem=kreska pseudotaktowa	!	!	!	!	!	!	!	!	!
2GG/	.	.	.	.	.	2b\	.	2.G\	Chri-	.	.	.	.	2dd\	Chri-
!	!	!	!	!LO:TX:t=P:problem=kreska pseudotaktowa	!	!	!	!	!	!	!	!	!	!LO:TX:t=P:problem=kreska pseudotaktowa	!
0C/	Chri-	4E/	Chri-	0c\	.	0cc\	Chri-	.	.	0G/	Chri-	0g\	Chri-	0ee\	.
.	.	4D/	.	.	.	.	.	4F\	.	.	.	.	.	.	.
.	.	4E/	.	.	.	.	.	4E\	.	.	.	.	.	.	.
!	!	!LO:TX:t=P:problem=kreska pseudotaktowa	!	!	!	!	!	!LO:TX:t=P:problem=kreska pseudotaktowa	!	!	!	!	!	!	!
.	.	4Fny/	.	.	.	.	.	4D\	.	.	.	.	.	.	.
=39-	=39-	=39-	=39-	=39-	=39-	=39-	=39-	=39-	=39-	=39-	=39-	=39-	=39-	=39-	=39-
.	.	1G/	.	.	.	.	.	1C/	.	.	.	.	.	.	.
*	*	*	*	*	*	*	*	*2\left	*	*	*	*	*	*	*
!LO:TX:t=P:problem=kreska pseudotaktowa	!	!LO:TX:t=P:problem=kreska pseudotaktowa	!	!	!	!	!	!LO:TX:t=P:problem=1G poprawione na 2G	!	!	!	!LO:LB:g=original	!	!	!
0GG/	-ſte	0G/	-ste	2.d\	.	4b\	.	2G\	-ſte	2B,\	-ſte	2g,\	-ste	2dd,\	-ſte
.	.	.	.	.	.	4a\	.	.	.	.	.	.	.	.	.
*	*	*	*	*	*	*	*	*2\right	*	*	*	*	*	*	*
.	.	.	.	.	.	4b\	.	2.G\	Do-	2.d\	Do-	2.g\	Do-	2.b\	Do-
!	!	!	!	!LO:TX:t=P:problem=kreska pseudotaktowa	!	!LO:TX:t=P:problem=kreska pseudotaktowa	!	!	!	!	!	!	!	!	!
.	.	.	.	4c/	-ſte	4cc\	-ste	.	.	.	.	.	.	.	.
=40-	=40-	=40-	=40-	=40-	=40-	=40-	=40-	=40-	=40-	=40-	=40-	=40-	=40-	=40-	=40-
.	.	.	.	1B/	.	1dd\	.	.	.	.	.	.	.	.	.
.	.	.	.	.	.	.	.	4G\	-mi-	4d\	-mi-	4g\	-mi-	4b\	-mi-
!	!	!	!	!	!	!	!	!	!	!	!	!	!	!LO:LB:g=original	!
!	!	!	!	!	!	!	!	!LO:TX:t=P:problem=kreska pseudotaktowa	!	!LO:TX:t=P:problem=kreska pseudotaktowa	!	!LO:TX:t=P:problem=kreska pseudotaktowa	!	!LO:TX:t=P:problem=kreska pseudotaktowa	!
.	.	.	.	.	.	.	.	2G\	-ne	2d\	-ne	2g\	-ne	2b\	-ne
!	!	!	!	!LO:TX:t=P:problem=kreska pseudotaktowa	!	!LO:TX:t=P:problem=kreska pseudotaktowa	!	!	!	!LO:TX:t=P:rytm:problem	!	!	!	!	!
!LO:TX:t=P:problem=kreska pseudotaktowa	!	!	!	!	!	!	!	!	!	!LO:N:vis=2.	!	!	!	!	!
00r	.	00r	.	00r	.	00r	.	1A\	DE-	4.e\	DE-	2f\	DE-	1cc\	DE-
!	!	!	!	!	!	!	!	!	!	!LO:TX:t=P:problem=kreska pseudotaktowa	!	!	!	!	!
!	!	!	!	!	!	!	!	!	!	!LO:N:vis=4	!	!	!	!	!
.	.	.	.	.	.	.	.	.	.	8d\	.	.	.	.	.
!	!	!	!	!	!	!	!	!	!	!LO:N:vis=4	!	!	!	!	!
.	.	.	.	.	.	.	.	.	.	8c\	.	1e\	-us	.	.
!	!	!	!	!	!	!	!	!	!	!LO:N:vis=4	!	!	!	!	!
.	.	.	.	.	.	.	.	.	.	8B\	.	.	.	.	.
!	!	!	!	!	!	!	!	!	!	!LO:TX:t=P:problem=kreska pseudotaktowa	!	!	!	!	!
!	!	!	!	!	!	!	!	!	!	!LO:N:vis=2	!	!	!	!	!
.	.	.	.	.	.	.	.	.	.	4A\	-us	.	.	.	.
=41-	=41-	=41-	=41-	=41-	=41-	=41-	=41-	=41-	=41-	=41-	=41-	=41-	=41-	=41-	=41-
.	.	.	.	.	.	.	.	2G\	-us	2B\	A-	.	.	2b\	-us
.	.	.	.	.	.	.	.	1F\	A-	1c\	.	2.f\	a-	1a\	A-
.	.	.	.	.	.	.	.	.	.	.	.	4c\	-gnus	.	.
!	!	!	!	!	!	!	!	!LO:TX:t=P:problem=kreska pseudotaktowa	!	!LO:TX:t=P:problem=kreska pseudotaktowa	!	!LO:TX:t=P::problem=kreska pseudotaktowa&colon;między nutą a kropką	!	!LO:TX:t=P:problem=kreska pseudotaktowa	!
.	.	.	.	.	.	.	.	2E\	-gnus	2c\	-gnus	2.e\	DE-	2g/	-gnus
=42-	=42-	=42-	=42-	=42-	=42-	=42-	=42-	=42-	=42-	=42-	=42-	=42-	=42-	=42-	=42-
.	.	.	.	.	.	.	.	1A\	DE-	1c\	DE-	.	.	1cc\	DE-
.	.	.	.	.	.	.	.	.	.	.	.	4d\	.	.	.
.	.	.	.	.	.	.	.	.	.	.	.	4e\	.	.	.
.	.	.	.	.	.	.	.	.	.	.	.	4f#X\	.	.	.
!	!	!	!	!	!	!	!	!LO:TX:t=P:problem=kreska pseudotaktowa	!	!	!	!	!	!	!
2r	.	2r	.	2r	.	2r	.	1G\	-i	1d\	-i	2g\	.	1b\	-i
!	!	!	!	!	!	!	!	!	!	!	!	!LO:TX:t=P:problem=kreska pseudotaktowa	!	!	!
2.G\	Do-	2.B\	Do-	2.d\	Do-	2.g/	Do-	.	.	.	.	2g\	-i	.	.
=43-	=43-	=43-	=43-	=43-	=43-	=43-	=43-	=43-	=43-	=43-	=43-	=43-	=43-	=43-	=43-
!	!	!	!	!	!	!	!	!	!	!LO:TX:t=P:problem=kreska pseudotaktowa	!	!	!	!	!
.	.	.	.	.	.	.	.	00r	.	00r	.	00r	.	00r	.
4G\	-mi-	4B\	-mi-	4d\	-mi-	4g/	-mi-	.	.	.	.	.	.	.	.
!LO:TX:t=P:problem=kreska pseudotaktowa	!	!LO:TX:t=P:problem=kreska pseudotaktowa	!	!LO:TX:t=P:problem=kreska pseudotaktowa	!	!LO:TX:t=P:problem=kreska pseudotaktowa	!	!	!	!	!	!	!	!	!
2C/	-ne	2c\	-ne	2e\	-ne	2g/	-ne	.	.	.	.	.	.	.	.
!LO:PB:g=original	!	!	!	!	!	!	!	!	!	!	!	!	!	!	!
!LO:TX:t=P:problem=kreska pseudotaktowa	!	!	!	!	!	!LO:TX:t=P:problem=kreska pseudotaktowa	!	!	!	!	!	!	!	!	!
1F\	DE-	1c\	DE-	1fny\	DE-	1a\	DE-	.	.	.	.	.	.	.	.
!	!	!	!	!	!	!LO:LB:g=original	!	!	!	!	!	!	!	!	!
=44-	=44-	=44-	=44-	=44-	=44-	=44-	=44-	=44-	=44-	=44-	=44-	=44-	=44-	=44-	=44-
2E,\	-us	2c\	-us	2g\	-us	2g/	-us	.	.	.	.	.	.	.	.
1F\	A-	1c\	A-	1a\	A-	1f/	A-	.	.	.	.	.	.	.	.
!LO:TX:t=P:problem=kreska pseudotaktowa	!	!LO:TX:t=P:problem=kreska pseudotaktowa	!	!LO:TX:t=P:problem=kreska pseudotaktowa	!	!LO:TX:t=P:problem=kreska pseudotaktowa	!	!	!	!	!	!	!	!	!
2C/	-gnus	2c\	-gnus	2g\	-gnus	2e/	-gnus	.	.	.	.	.	.	.	.
=45-	=45-	=45-	=45-	=45-	=45-	=45-	=45-	=45-	=45-	=45-	=45-	=45-	=45-	=45-	=45-
!	!	!	!	!	!	!	!	!LO:TX:t=P:problem=kreska pseudotaktowa	!	!	!	!LO:TX:t=P:problem=kreska pseudotaktowa	!	!LO:TX:t=P:problem=kreska pseudotaktowa	!
1FF/	DE-	1c\	DE-	1f\	DE-	1a\	DE-	1r	.	4r	.	1r	.	1r	.
.	.	.	.	.	.	.	.	.	.	8Fny/L	Fi-	.	.	.	.
.	.	.	.	.	.	.	.	.	.	8G/	.	.	.	.	.
.	.	.	.	.	.	.	.	.	.	8A/	.	.	.	.	.
.	.	.	.	.	.	.	.	.	.	8B/J	.	.	.	.	.
.	.	.	.	.	.	.	.	.	.	2c\	.	.	.	.	.
!LO:TX:t=P:problem=kreska pseudotaktowa	!	!LO:TX:t=P:problem=kreska pseudotaktowa	!	!LO:TX:t=P:problem=kreska pseudotaktowa	!	!LO:TX:t=P:problem=kreska pseudotaktowa	!	!	!	!	!	!	!	!	!
1C/	-i	1c\	-i	1e\	-i	1g\	-i	2r	.	.	.	4r	.	2r	.
.	.	.	.	.	.	.	.	.	.	4G/	-li-	2g\	Fi-	.	.
!	!	!	!	!	!	!	!	!	!	!LO:TX:t=P:problem=kreska pseudotaktowa	!	!	!	!	!
.	.	.	.	.	.	.	.	2.c\	Fi-	2C/	-us	.	.	2.ee\	Fi-
.	.	.	.	.	.	.	.	.	.	.	.	4fny\	-li-	.	.
=46-	=46-	=46-	=46-	=46-	=46-	=46-	=46-	=46-	=46-	=46-	=46-	=46-	=46-	=46-	=46-
00r	.	0r	.	0r	.	0r	.	.	.	2r	.	2e\	-us	.	.
.	.	.	.	.	.	.	.	4B\	-li-	.	.	.	.	4dd\	-li-
!	!	!	!	!	!	!	!	!LO:TX:t=P:problem=kreska pseudotaktowa	!	!	!	!	!	!LO:TX:t=P:problem=kreska pseudotaktowa	!
.	.	.	.	.	.	.	.	2A\	-us	2.e\	Fi-	4r	.	2cc\	-us
!	!	!	!	!	!	!	!	!	!	!	!	!LO:TX:t=P:problem=kreska pseudotaktowa	!	!	!
.	.	.	.	.	.	.	.	.	.	.	.	4A/	fi-	.	.
.	.	.	.	.	.	.	.	4.G#X\	Pa-	.	.	2B/	-li-	2b\	Pa-
.	.	.	.	.	.	.	.	.	.	4d\	-li-	.	.	.	.
.	.	.	.	.	.	.	.	16F#X\LL	.	.	.	.	.	.	.
.	.	.	.	.	.	.	.	16G#X\JJ	.	.	.	.	.	.	.
!	!	!	!	!	!	!	!	!	!	!LO:TX:t=P:problem=kreska pseudotaktowa	!	!LO:TX:t=P:problem=kreska pseudotaktowa	!	!	!
.	.	.	.	.	.	.	.	4A\	.	2c\	-us	2e\	-us	4a\	-tris
!	!	!	!	!	!	!	!	!LO:TX:t=P:problem=kreska pseudotaktowa	!	!	!	!	!	!	!
.	.	.	.	.	.	.	.	4AA/	.	.	.	.	.	2a\	.
=47-	=47-	=47-	=47-	=47-	=47-	=47-	=47-	=47-	=47-	=47-	=47-	=47-	=47-	=47-	=47-
!	!	!LO:TX:t=P:problem=kreska pseudotaktowa	!	!	!	!LO:TX:t=P:problem=kreska pseudotaktowa	!	!	!	!	!	!	!	!	!
.	.	1r	.	2r	.	1r	.	1E\	.	1B\	Pa-	1e\	Pa-	.	.
.	.	.	.	.	.	.	.	.	.	.	.	.	.	8g#X\L	Pa-
.	.	.	.	.	.	.	.	.	.	.	.	.	.	8f#X\J	.
!	!	!	!	!	!	!	!	!	!	!	!	!	!	!LO:TX:t=P:problem=kreska pseudotaktowa	!
.	.	.	.	2.e\	Fi-	.	.	.	.	.	.	.	.	2g#X\	.
!	!	!	!	!	!	!	!	!LO:TX:t=P:problem=kreska pseudotaktowa	!	!LO:TX:t=P:problem=kreska pseudotaktowa	!	!LO:TX:t=P:problem=kreska pseudotaktowa	!	!LO:TX:t=P:problem=kreska pseudotaktowa	!
.	.	2.A/	Fi-	.	.	2.cc\	Fi-	1AA/	-tris	0A\	-tris	1e\	-tris	1a\	-tris
.	.	.	.	4d\	-li-	.	.	.	.	.	.	.	.	.	.
!	!	!	!	!LO:LB:g=original	!	!	!	!	!	!	!	!	!	!	!
!	!	!	!	!LO:TX:t=P:problem=kreska pseudotaktowa	!	!	!	!	!	!	!	!	!	!	!
.	.	.	.	2c/	-us	.	.	.	.	.	.	.	.	.	.
!	!	!LO:TX:t=P:problem=kreska pseudotaktowa	!	!	!	!	!	!	!	!	!	!	!	!	!
.	.	4G/	-li-	.	.	4b\	-li-	.	.	.	.	.	.	.	.
!	!	!LO:LB:g=original	!	!	!	!	!	!LO:LB:g=original	!	!	!	!	!	!	!
=48-	=48-	=48-	=48-	=48-	=48-	=48-	=48-	=48-	=48-	=48-	=48-	=48-	=48-	=48-	=48-
!	!	!LO:TX:t=P:problem=kreska pseudotaktowa	!	!	!	!	!	!	!	!	!	!	!	!	!
2r	.	1F/	-us	4c/	Pa-	2a\	-us	00r	.	.	.	0r	.	0r	.
.	.	.	.	4B/	.	.	.	.	.	.	.	.	.	.	.
*	*	*	*	*	*	*	*ij	*	*	*	*	*	*	*	*
2.F\	Fi-	.	.	4A/	.	2.a\	Fi-	.	.	.	.	.	.	.	.
!	!	!	!	!LO:TX:t=P:problem=kreska pseudotaktowa	!	!	!	!	!	!	!	!	!	!	!
.	.	.	.	4B/	.	.	.	.	.	.	.	.	.	.	.
!	!	!	!	!	!	!	!	!	!	!LO:LB:g=original	!	!	!	!	!
.	.	2r	.	2c/	.	.	.	.	.	0r	.	.	.	.	.
4E\	-li-	.	.	.	.	4g\	-li-	.	.	.	.	.	.	.	.
!LO:TX:t=P:problem=kreska pseudotaktowa	!	!	!	!LO:TX:t=P:problem=kreska pseudotaktowa	!	!LO:TX:t=P:problem=kreska pseudotaktowa	!	!	!	!	!	!	!	!	!
2D/	-us	2.A/	Fi-	2d\	-tris	2f/	-us	.	.	.	.	.	.	.	.
*	*	*	*	*	*	*	*Xij	*	*	*	*	*	*	*	*
=49-	=49-	=49-	=49-	=49-	=49-	=49-	=49-	=49-	=49-	=49-	=49-	=49-	=49-	=49-	=49-
4.C#X/	Pa-	.	.	2r	.	2e/	Pa-	.	.	.	.	1r	.	2r	.
.	.	4G/	-li-	.	.	.	.	.	.	.	.	.	.	.	.
16BB/LL	.	.	.	.	.	.	.	.	.	.	.	.	.	.	.
16C#X/JJ	.	.	.	.	.	.	.	.	.	.	.	.	.	.	.
!	!	!LO:TX:t=P:problem=kreska pseudotaktowa	!	!	!	!	!	!	!	!	!	!	!	!	!
2D/	.	2F/	-us	2.d\	Pa-	4f/	.	.	.	.	.	.	.	2.a\	Fi-
.	.	.	.	.	.	4g/	.	.	.	.	.	.	.	.	.
!LO:TX:t=P:problem=kreska pseudotaktowa	!	!	!	!	!	!LO:TX:t=P:problem=kreska pseudotaktowa	!	!	!	!	!	!	!	!	!
1AA/	-tris	1E/	Pa-	.	.	1a\	.	.	.	2r	.	4r	.	.	.
.	.	.	.	4c#X\	.	.	.	.	.	.	.	2a\	Fi-	4e/	-li-
!	!	!	!	!	!	!	!	!	!	!	!	!	!	!LO:TX:t=P:problem=kreska pseudotaktowa	!
.	.	.	.	4c#\	.	.	.	.	.	2.A/	Fi-	.	.	2e/	-us
!	!	!	!	!	!	!	!	!	!	!	!	!LO:TX:t=P:problem=kreska pseudotaktowa	!	!	!
.	.	.	.	8B\L	.	.	.	.	.	.	.	4g\	-li-	.	.
!	!	!	!	!LO:TX:t=P:problem=kreska pseudotaktowa	!	!	!	!	!	!	!	!	!	!	!
.	.	.	.	8c#X\J	.	.	.	.	.	.	.	.	.	.	.
=50-	=50-	=50-	=50-	=50-	=50-	=50-	=50-	=50-	=50-	=50-	=50-	=50-	=50-	=50-	=50-
2r	.	2D/	-tris	1d\	-tris	2a,\	-tris	2r	.	.	.	2f\	-us	0a\	Pa-
.	.	.	.	.	.	.	.	.	.	4G/	-li-	.	.	.	.
*	*	*	*	*	*	*	*	*	*	*	*	*	*ij	*	*
!	!	!LO:TX:t=P:problem=kreska pseudotaktowa	!	!	!	!	!	!	!	!LO:TX:t=P:problem=kreska pseudotaktowa	!	!	!	!	!
2.D/	Fi-	2D/	Fi-	.	.	2.dd\	Fi-	2.D/	Fi-	2F/	-us	2.f\	Fi-	.	.
.	.	2F/	-li-	2d\	.	.	.	.	.	1A\	Pa-	.	.	.	.
4D/	-li-	.	.	.	.	4dd\	-li-	4D/	-li-	.	.	4f\	-li-	.	.
!LO:TX:t=P:problem=kreska pseudotaktowa	!	!LO:TX:t=P:problem=kreska pseudotaktowa	!	!LO:TX:t=P:problem=kreska pseudotaktowa	!	!LO:TX:t=P:problem=kreska pseudotaktowa	!	!LO:TX:t=P:problem=kreska pseudotaktowa	!	!	!	!LO:TX:t=P:problem=kreska pseudotaktowa	!	!	!
2AA/	-us	2A/	-us	2r	.	2ee\	-us	2C#X/	-us	.	.	2e\	-us	.	.
*	*	*	*	*	*	*	*	*	*	*	*	*	*Xij	*	*
!	!	!	!	!	!	!	!	!	!	!	!	!LO:LB:g=original	!	!	!
=51-	=51-	=51-	=51-	=51-	=51-	=51-	=51-	=51-	=51-	=51-	=51-	=51-	=51-	=51-	=51-
!	!	!	!	!	!	!	!	!	!	!LO:TX:t=P:problem=kreska pseudotaktowa	!	!	!	!	!
1D\	Pa-	2.F/	Pa-	4r	.	4.dd\	Pa-	4D\	Pa-	1A\	-tris	1f\	Pa-	2a\	-tris
.	.	.	.	4.d\	Fi-	.	.	4E\	.	.	.	.	.	.	.
.	.	.	.	.	.	16cc\LL	.	.	.	.	.	.	.	.	.
.	.	.	.	.	.	16b\JJ	.	.	.	.	.	.	.	.	.
.	.	.	.	.	.	1a\	.	4Fny\	.	.	.	.	.	2.dd\	Fi-
.	.	.	.	8d\	-li-	.	.	.	.	.	.	.	.	.	.
!	!	!	!	!LO:TX:t=P:problem=kreska pseudotaktowa	!	!	!	!	!	!	!	!	!	!	!
.	.	8E/L	.	4d\	-us	.	.	4Gny\	.	.	.	.	.	.	.
.	.	8D/J	.	.	.	.	.	.	.	.	.	.	.	.	.
1AA/	-tris	0.E/	.	2r	.	.	.	2.A\	.	2r	.	2e\	-tris	.	.
.	.	.	.	.	.	.	.	.	.	.	.	.	.	4dd\	-li-
*	*	*	*	*	*	*	*	*	*	*	*ij	*	*	*	*
!	!	!	!	!LO:TX:t=P:problem=kreska pseudotaktowa	!	!LO:TX:t=P:problem=kreska pseudotaktowa	!	!	!	!	!	!LO:TX:t=P:problem=kreska pseudotaktowa	!	!LO:TX:t=P:problem=kreska pseudotaktowa	!
.	.	.	.	2A/	Fi-	2a\	-tris	.	.	2.e\	Fi-	2A/	Fi-	2cc\	-us
.	.	.	.	.	.	.	.	8G\L	.	.	.	.	.	.	.
!	!	!	!	!	!	!	!	!LO:TX:t=P:problem=kreska pseudotaktowa	!	!	!	!	!	!	!
.	.	.	.	.	.	.	.	8F\J	.	.	.	.	.	.	.
=52-	=52-	=52-	=52-	=52-	=52-	=52-	=52-	=52-	=52-	=52-	=52-	=52-	=52-	=52-	=52-
*lig	*	*	*	*	*	*	*	*	*	*	*	*	*	*	*
1E\	Pa-	.	.	2G#X/	-li-	4r	.	0E\	.	.	.	2B/	-li-	2r	.
.	.	.	.	.	.	4b\	Fi-	.	.	4d\	-li-	.	.	.	.
!	!	!	!	!LO:TX:t=P:problem=kreska pseudotaktowa	!	!	!	!	!	!LO:TX:t=P:problem=kreska pseudotaktowa	!	!	!	!	!
.	.	.	.	2A/	-us	4cc\	-li-	.	.	2c\	-us	2e\	-us	2.ee\	Pa-
!	!	!	!	!	!	!LO:TX:t=P:problem=kreska pseudotaktowa	!	!	!	!	!	!	!	!	!
.	.	.	.	.	.	4a\	-us	.	.	.	.	.	.	.	.
1EE/	.	.	.	2B/	Pa-	4g#X\	Pa-	.	.	1B\	Pa-	1e\	Pa-	.	.
.	.	.	.	.	.	2a\	.	.	.	.	.	.	.	8dd\L	.
.	.	.	.	.	.	.	.	.	.	.	.	.	.	8cc\J	.
.	.	.	.	4.e\	.	.	.	.	.	.	.	.	.	2b\	-tris
.	.	.	.	.	.	4g#X\	.	.	.	.	.	.	.	.	.
!	!	!	!	!LO:TX:t=P:problem=kreska pseudotaktowa	!	!	!	!	!	!	!	!	!	!	!
.	.	.	.	8d\	.	.	.	.	.	.	.	.	.	.	.
*Xlig	*	*	*	*	*	*	*	*	*	*	*	*	*	*	*
=53-	=53-	=53-	=53-	=53-	=53-	=53-	=53-	=53-	=53-	=53-	=53-	=53-	=53-	=53-	=53-
!	!	!	!	!	!	!	!	!	!	!	!	!	!	!LO:TX:t=P:problem=# above	!
0AA/	-tris	0E/	-tris	0c#X\	-tris	0a\;<	-tris	0AA/	-tris	0A\	-tris	0e\	-tris	0cc#X\;<	.
!LO:LB:g=original	!	!	!	!LO:LB:g=original	!	!	!	!	!	!	!	!	!	!LO:LB:g=original	!
=54||	=54||	=54||	=54||	=54||	=54||	=54||	=54||	=54||	=54||	=54||	=54||	=54||	=54||	=54||	=54||
*M2/1	*	*M2/1	*	*M2/1	*	*M2/1	*	*M2/1	*	*M2/1	*Xij	*M2/1	*	*M2/1	*
*met(C|)	*	*met(C|)	*	*met(C|)	*	*met(C|)	*	*met(C|)	*	*met(C|)	*	*met(C|)	*	*met(C|)	*
!LO:TX:b:t=Qui tollis	!	!LO:TX:b:t=Qui tollis	!	!LO:TX:b:t=Qui tollis	!	!LO:TX:b:t=Qui tollis	!	!	!	!	!	!LO:TX:t=P:problem=kreska pseudotaktowa	!	!	!
00r	.	00r	.	00r	.	00r	.	0r	.	1r	.	1r	.	1e/	Qui
!	!	!	!	!	!	!	!	!	!	!LO:TX:t=P:problem=kreska pseudotaktowa	!	!	!	!	!
.	.	.	.	.	.	.	.	.	.	1A\	Qui	1e\	Qui	0a\	tol-
=55-	=55-	=55-	=55-	=55-	=55-	=55-	=55-	=55-	=55-	=55-	=55-	=55-	=55-	=55-	=55-
!	!	!	!	!	!	!	!	!LO:TX:t=P:problem=kreska pseudotaktowa	!	!	!	!	!	!	!
.	.	.	.	.	.	.	.	1r	.	2d\	tol-	2f\	tol-	.	.
.	.	.	.	.	.	.	.	.	.	1d\	-lis	1f\	-lis	.	.
!	!	!	!	!	!	!	!	!	!	!	!	!	!	!LO:TX:t=P:problem=kreska pseudotaktowa	!
.	.	.	.	.	.	.	.	1AA/	Qui	.	.	.	.	0a\	-lis
!	!	!	!	!	!	!	!	!	!	!LO:TX:t=P:problem=kreska pseudotaktowa	!	!LO:TX:t=P:problem=kreska pseudotaktowa	!	!	!
.	.	.	.	.	.	.	.	.	.	2c#X\	pec-	2e\	pec-	.	.
=56-	=56-	=56-	=56-	=56-	=56-	=56-	=56-	=56-	=56-	=56-	=56-	=56-	=56-	=56-	=56-
00r	.	00r	.	00r	.	00r	.	1D\	tol-	2.d\	-ca-	2.f\	-ca-	.	.
.	.	.	.	.	.	.	.	.	.	4e\	.	4e\	.	.	.
.	.	.	.	.	.	.	.	2D/	-lis	2f\	-ta	2d\	.	2a\	pec-
!	!	!	!	!	!	!	!	!LO:TX:t=P:problem=kreska pseudotaktowa	!	!LO:TX:t=P:problem=kreska pseudotaktowa	!	!LO:TX:t=P:problem=kreska pseudotaktowa	!	!	!
.	.	.	.	.	.	.	.	2C#X/	pec-	2e\	.	2e\	-ta	1a\	-ca-
=57-	=57-	=57-	=57-	=57-	=57-	=57-	=57-	=57-	=57-	=57-	=57-	=57-	=57-	=57-	=57-
.	.	.	.	.	.	.	.	2D\	-ca-	2d\	Mun-	2f\	Mun-	.	.
!	!	!	!	!	!	!	!	!	!	!LO:TX:t=P:problem=kreska pseudotaktowa	!	!	!	!LO:TX:t=P:problem=kreska pseudotaktowa	!
.	.	.	.	.	.	.	.	2E\	-ta	2B\	-di	1e\	-di	2g#X\	-ta
*	*	*	*	*	*	*	*	*lig	*	*	*	*	*	*	*
.	.	.	.	.	.	.	.	1F\	Mun-	2A/	pec-	.	.	2.a\	Mun-
!	!	!	!	!	!	!	!	!	!	!	!	!LO:TX:t=P:problem=kreska pseudotaktowa	!	!	!
.	.	.	.	.	.	.	.	.	.	1A/	-ca-	2d\	pec-	.	.
.	.	.	.	.	.	.	.	.	.	.	.	.	.	4b\	.
=58-	=58-	=58-	=58-	=58-	=58-	=58-	=58-	=58-	=58-	=58-	=58-	=58-	=58-	=58-	=58-
*	*	*	*	*	*	*	*	*col	*	*	*	*	*	*	*
!	!	!LO:TX:t=P:problem=kreska pseudotaktowa	!	!	!	!	!	!	!	!	!	!	!	!	!
2r	.	0r	.	2r	.	2r	.	2.E\	.	.	.	1e\	-ca-	4cc\	.
.	.	.	.	.	.	.	.	.	.	.	.	.	.	8b\L	.
.	.	.	.	.	.	.	.	.	.	.	.	.	.	8a\J	.
!LO:TX:t=P:problem=kreska pseudotaktowa	!	!	!	!LO:TX:t=P:problem=kreska pseudotaktowa	!	!LO:TX:t=P:problem=kreska pseudotaktowa	!	!	!	!LO:TX:t=P:problem=kreska pseudotaktowa	!	!	!	!	!
2E\	Mi-	.	.	2B/	Mi-	2e/	Mi-	.	.	2G#X/	-ta	.	.	2b\	-di
*	*	*	*	*	*	*	*	*Xlig	*	*	*	*	*	*	*
!	!	!	!	!	!	!	!	!LO:TX:t=P:problem=kreska pseudotaktowa	!	!	!	!	!	!	!
.	.	.	.	.	.	.	.	4D/	.	.	.	.	.	.	.
*	*	*	*	*	*	*	*	*Xcol	*	*lig	*	*	*	*	*
!	!	!	!	!	!	!	!	!	!	!	!	!LO:TX:t=P:problem=kreska pseudotaktowa	!	!LO:TX:t=P:problem=kreska pseudotaktowa	!
1AA/	-ſe-	.	.	1c\	-ſe-	2e/	-ſe-	4Cny/	.	1A\	Mun-	1e\	-ta	1a\	.
.	.	.	.	.	.	.	.	4BB/	.	.	.	.	.	.	.
.	.	.	.	.	.	2.a\	-re-	2AA/	.	.	.	.	.	.	.
=59-	=59-	=59-	=59-	=59-	=59-	=59-	=59-	=59-	=59-	=59-	=59-	=59-	=59-	=59-	=59-
*	*	*	*	*	*	*	*	*col	*	*	*	*	*	*	*
*	*	*	*	*lig	*	*	*	*lig	*	*	*	*	*	*	*
2.E\	-re-	2r	.	1B/	-re-	.	.	1EE/	-di	1B\	.	1e\	mun-	00r	.
.	.	.	.	.	.	4g#X\	-re	.	.	.	.	.	.	.	.
*	*	*	*	*	*	*	*ij	*	*	*	*	*	*	*	*
.	.	2E/	Mi-	.	.	4g#\	Mi-	.	.	.	.	.	.	.	.
!LO:TX:t=P:problem=kreska pseudotaktowa	!	!	!	!	!	!	!	!	!	!	!	!	!	!	!
4D/	.	.	.	.	.	8f#X\L	-ſe-	.	.	.	.	.	.	.	.
!	!	!	!	!	!	!LO:TX:t=P:problem=kreska pseudotaktowa	!	!	!	!	!	!	!	!	!
.	.	.	.	.	.	8g#X\J	.	.	.	.	.	.	.	.	.
!	!	!LO:TX:t=P:problem=kreska pseudotaktowa	!	!	!	!	!	!	!	!	!	!	!	!	!
*	*	*	*	*col	*	*	*	*	*	*Xlig	*	*	*	*	*
!	!	!	!	!	!	!	!	!LO:TX:t=P:problem=kreska pseudotaktowa	!	!LO:TX:t=P:problem=kreska pseudotaktowa	!	!LO:TX:t=P:problem=kreska pseudotaktowa	!	!	!
4C/	.	2E/	-ſe-	2.c/	.	2.a\	-re-	1AA/	.	1A\	-di	1e\	-di	.	.
4BB/	.	.	.	.	.	.	.	.	.	.	.	.	.	.	.
!LO:TX:t=P:problem=kreska pseudotaktowa	!	!	!	!	!	!	!	!	!	!	!	!	!	!	!
2AA/	.	1A/	-re-	.	.	.	.	.	.	.	.	.	.	.	.
*	*	*	*	*	*	*	*	*Xcol	*	*	*	*	*	*	*
*	*	*	*	*Xlig	*	*	*	*Xlig	*	*	*	*	*	*	*
!	!	!	!	!LO:TX:t=P:problem=kreska pseudotaktowa	!	!LO:TX:t=P:problem=kreska pseudotaktowa	!	!	!	!	!	!	!	!	!
.	.	.	.	4d\	.	4b\	.	.	.	.	.	.	.	.	.
*	*	*	*	*Xcol	*	*	*	*	*	*	*	*	*	*	*
=60-	=60-	=60-	=60-	=60-	=60-	=60-	=60-	=60-	=60-	=60-	=60-	=60-	=60-	=60-	=60-
*lig	*	*	*	*	*	*	*	*	*	*	*	*	*	*	*
1E\	-re	.	.	2e\	.	2cc\	.	0r	.	0r	.	0r	.	.	.
!	!	!LO:TX:t=P:problem=kreska pseudotaktowa	!	!	!	!	!	!	!	!	!	!	!	!	!
.	.	2G#X/	-re	2.e\	-re	1b\	-re	.	.	.	.	.	.	.	.
*	*	*	*	*	*	*	*Xij	*	*	*	*	*	*	*	*
1F\	.	2.A\	No-	.	.	.	.	.	.	.	.	.	.	.	.
.	.	.	.	8d\L	.	.	.	.	.	.	.	.	.	.	.
.	.	.	.	8c\J	.	.	.	.	.	.	.	.	.	.	.
!	!	!	!	!LO:TX:t=P:problem=kreska pseudotaktowa	!	!	!	!	!	!	!	!	!	!	!
.	.	.	.	2d\	.	1a\	No-	.	.	.	.	.	.	.	.
.	.	4B\	.	.	.	.	.	.	.	.	.	.	.	.	.
!	!	!LO:TX:t=P:problem=kreska pseudotaktowa	!	!	!	!	!	!	!	!	!	!	!	!	!
*Xlig	*	*	*	*	*	*	*	*	*	*	*	*	*	*	*
=61-	=61-	=61-	=61-	=61-	=61-	=61-	=61-	=61-	=61-	=61-	=61-	=61-	=61-	=61-	=61-
!	!	!	!	!	!	!	!	!LO:TX:t=P:problem=kreska pseudotaktowa	!	!LO:TX:t=P:problem=kreska pseudotaktowa	!	!LO:TX:t=P:problem=kreska pseudotaktowa	!	!LO:TX:t=P:problem=kreska pseudotaktowa	!
0E\	no-	2c\	.	0e\	No-	.	.	1r	.	1r	.	1r	.	1r	.
.	.	4B\	.	.	.	4g#X\	.	.	.	.	.	.	.	.	.
!	!	!LO:TX:t=P:problem=kreska pseudotaktowa	!	!	!	!LO:TX:t=P:problem=kreska pseudotaktowa	!	!	!	!	!	!	!	!	!
.	.	4A\	.	.	.	4f#X\	.	.	.	.	.	.	.	.	.
!	!	!LO:LB:g=original	!	!	!	!	!	!	!	!LO:LB:g=original	!	!	!	!	!
.	.	1B\	bis	.	.	1g#X\	.	2r	.	2B\	Qui	2r	.	2r	.
!	!	!	!	!	!	!	!	!LO:TX:t=P:problem=kreska pseudotaktowa	!	!	!	!	!	!LO:TX:t=P:problem=kreska pseudotaktowa	!
.	.	.	.	.	.	.	.	2E\	Qui	2.e\	tol-	2B/	qui	2ee\	Qui
!	!	!	!	!	!	!	!	!LO:LB:g=original	!	!	!	!	!	!	!
=62-	=62-	=62-	=62-	=62-	=62-	=62-	=62-	=62-	=62-	=62-	=62-	=62-	=62-	=62-	=62-
!LO:TX:t=P:problem=kreska pseudotaktowa	!	!LO:TX:t=P:problem=kreska pseudotaktowa	!	!LO:TX:t=P:problem=kreska pseudotaktowa	!	!LO:TX:t=P:problem=kreska pseudotaktowa	!	!	!	!	!	!	!	!	!
1AA/	bis	1A\	.	1e\	-bis	1a\	-bis	1A\	tol-	.	.	2c/	tol-	2cc\	tol-
.	.	.	.	.	.	.	.	.	.	4d\	.	.	.	.	.
.	.	.	.	.	.	.	.	.	.	4cny\	.	1e\	-lis	1a\	-lis
!	!	!	!	!	!	!	!	!	!	!LO:TX:t=P:problem=kreska pseudotaktowa	!	!	!	!	!
.	.	.	.	.	.	.	.	.	.	4B\	.	.	.	.	.
!	!	!	!	!	!	!LO:TX:t=P:problem=kreska pseudotaktowa	!	!	!	!	!	!	!	!	!
00r	.	00r	.	00r	.	00r	.	2A\	-lis	2A\	.	.	.	.	.
!	!	!	!	!	!	!	!	!LO:TX:t=P:problem=kreska pseudotaktowa	!	!	!	!	!	!LO:TX:t=P:problem=kreska pseudotaktowa	!
.	.	.	.	.	.	.	.	2G#X\	pec-	2B\	-lis	1e\	pec-	2b\	pec-
=63-	=63-	=63-	=63-	=63-	=63-	=63-	=63-	=63-	=63-	=63-	=63-	=63-	=63-	=63-	=63-
!	!	!	!	!	!	!	!	!	!	!LO:TX:t=P:problem=kreska pseudotaktowa	!	!	!	!	!
.	.	.	.	.	.	.	.	2.A\	-ca-	1c\	pec-	.	.	4cc\	-ca-
.	.	.	.	.	.	.	.	.	.	.	.	.	.	4b\	.
!	!	!	!	!	!	!	!	!	!	!	!	!LO:TX:t=P:problem=kreska pseudotaktowa	!	!	!
.	.	.	.	.	.	.	.	.	.	.	.	2f\	-ca-	4a\	.
.	.	.	.	.	.	.	.	4B\	-ta	.	.	.	.	4gny\	.
!	!	!	!	!	!	!	!	!	!	!	!	!LO:LB:g=original	!	!	!
.	.	.	.	.	.	.	.	2c\	.	2A/	-ca-	2e\	-ta	2a\	-ta
!	!	!	!	!	!	!	!	!LO:TX:t=P:problem=kreska pseudotaktowa	!	!	!	!	!	!LO:TX:t=P:problem=kreska pseudotaktowa	!
.	.	.	.	.	.	.	.	2B\	.	2Gny/	-ta	2.g\	Mun-	2b\	.
=64-	=64-	=64-	=64-	=64-	=64-	=64-	=64-	=64-	=64-	=64-	=64-	=64-	=64-	=64-	=64-
!	!	!	!	!	!	!	!	!	!	!LO:TX:t=P:problem=kreska pseudotaktowa	!	!	!	!	!
.	.	.	.	.	.	.	.	1A\	mun-	1c\	mun-	.	.	1cc\	mun-
.	.	.	.	.	.	.	.	.	.	.	.	8f#X\L	.	.	.
.	.	.	.	.	.	.	.	.	.	.	.	8e\J	.	.	.
!	!	!	!	!	!	!	!	!	!	!	!	!LO:TX:t=P:problem=kreska pseudotaktowa	!	!	!
.	.	.	.	.	.	.	.	.	.	.	.	2f#X\	.	.	.
!	!	!	!	!	!	!LO:LB:g=original	!	!	!	!	!	!	!	!	!
2r	.	2.Gny/	Su-	2r	.	4gny\	Su-	2Gny,\	-di	2d\	-di	2g,\	-di	2b\	-di
.	.	.	.	.	.	4a\	.	.	.	.	.	.	.	.	.
1G\	Su-	.	.	1g\	Su-	4b\	.	1GG/	ſu-	1B\	ſu-	1d\	ſu-	4dd\	Su-
!	!	!LO:TX:t=P:problem=kreska pseudotaktowa	!	!	!	!LO:TX:t=P:problem=kreska pseudotaktowa	!	!	!	!	!	!	!	!LO:TX:t=P:problem=kreska pseudotaktowa	!
.	.	4G/	-ſci-	.	.	4cc\	.	.	.	.	.	.	.	4cc\	.
=65-	=65-	=65-	=65-	=65-	=65-	=65-	=65-	=65-	=65-	=65-	=65-	=65-	=65-	=65-	=65-
.	.	1D/	-pe	.	.	2.dd\	-sci-	.	.	.	.	.	.	2b\	.
!LO:TX:t=P:problem=kreska pseudotaktowa	!	!	!	!LO:TX:t=P:problem=kreska pseudotaktowa	!	!	!	!LO:TX:t=P:problem=kreska pseudotaktowa	!	!LO:TX:t=P:problem=kreska pseudotaktowa	!	!LO:TX:t=P:problem=kreska pseudotaktowa	!	!	!
2F#X\	-ſci-	.	.	2a\	-ſci-	.	.	2D/	-ſci-	2d\	-ſci-	2d\	-ſci-	2a\	-ſci-
.	.	.	.	.	.	4dd\	-pe	.	.	.	.	.	.	.	.
!	!	!	!	!	!	!LO:TX:t=P:problem=kreska pseudotaktowa	!	!LO:TX:t=P:problem=kreska pseudotaktowa	!	!	!	!	!	!LO:TX:t=P:problem=kreska pseudotaktowa	!
1G\	-pe	4r	.	1g\	-pe	1dd\	de-	1GG/	-pe	2B\	-pe	1d\	-pe	1b\	-pe
.	.	4.d\	de-	.	.	.	.	.	.	.	.	.	.	.	.
.	.	.	.	.	.	.	.	.	.	1G/	de-	.	.	.	.
.	.	8c\L	.	.	.	.	.	.	.	.	.	.	.	.	.
.	.	8B\	.	.	.	.	.	.	.	.	.	.	.	.	.
!	!	!LO:TX:t=P:problem=kreska pseudotaktowa	!	!	!	!	!	!	!	!	!	!	!	!	!
.	.	8A\J	.	.	.	.	.	.	.	.	.	.	.	.	.
!	!	!	!	!	!	!	!	!	!	!	!	!	!	!LO:LB:g=original	!
=66-	=66-	=66-	=66-	=66-	=66-	=66-	=66-	=66-	=66-	=66-	=66-	=66-	=66-	=66-	=66-
2.E\	de-	8G\L	.	2.g\	de-	2.ee\	-pre-	2.C/	de-	.	.	2c\	de-	2.cc\	de-
.	.	8F\	.	.	.	.	.	.	.	.	.	.	.	.	.
.	.	8E\	.	.	.	.	.	.	.	.	.	.	.	.	.
.	.	8D\J	.	.	.	.	.	.	.	.	.	.	.	.	.
!	!	!LO:TX:t=P::problem=kreska pseudotaktowa&colon;między nutą a kropką	!	!	!	!	!	!	!	!LO:TX:t=P:problem=kreska pseudotaktowa	!	!LO:TX:t=P:problem=kreska pseudotaktowa	!	!	!
.	.	2.C/	.	.	.	.	.	.	.	2G/	-pre-	2e\	-pre-	.	.
!LO:TX:t=P:problem=kreska pseudotaktowa	!	!	!	!LO:TX:t=P:problem=kreska pseudotaktowa	!	!	!	!	!	!	!	!	!	!	!
4E\	-pre-	.	.	4g\	-pre-	4ee\	-ca-	4C/	-pre-	.	.	.	.	4cc\	-pre-
2E\	-ca-	.	.	2g\	-ca-	2ee\	-ti-	2C/	-ca-	2G/	-ca-	2e\	-ca-	2cc\	-ca-
.	.	4C/	-pre-	.	.	.	.	.	.	.	.	.	.	.	.
!	!	!	!	!	!	!LO:TX:t=P:problem=kreska pseudotaktowa	!	!LO:TX:t=P:problem=kreska pseudotaktowa	!	!	!	!	!	!LO:TX:t=P:problem=kreska pseudotaktowa	!
2C/	-ti-	4G/	-ca-	2e\	-ti-	2ee\	-o-	2E\	-ti-	2G/	-ti-	2g\	-ti-	2cc\	-ti-
!	!	!LO:TX:t=P:problem=kreska pseudotaktowa	!	!	!	!	!	!	!	!	!	!	!	!	!
.	.	4C/	-ti-	.	.	.	.	.	.	.	.	.	.	.	.
=67-	=67-	=67-	=67-	=67-	=67-	=67-	=67-	=67-	=67-	=67-	=67-	=67-	=67-	=67-	=67-
!	!	!	!	!	!	!	!	!	!	!	!	!LO:TX:t=P:problem=kreska pseudotaktowa	!	!	!
1GG/	o-	2D/	o-	1d\	-o-	4dd\	.	1G\	-o-	1.B\	-o-	1g\	-o-	4b\	-o-
.	.	.	.	.	.	4cc\	.	.	.	.	.	.	.	4a\	.
.	.	1D/	-nem	.	.	4b\	.	.	.	.	.	.	.	4b\	.
.	.	.	.	.	.	4a\	.	.	.	.	.	.	.	4cc\	.
!LO:TX:t=P:problem=kreska pseudotaktowa	!	!	!	!LO:TX:t=P:problem=kreska pseudotaktowa	!	!	!	!LO:TX:t=P:problem=kreska pseudotaktowa	!	!	!	!	!	!	!
1GG/	-nem	.	.	1d\	-nem	2b\	.	1G\	-nem	.	.	2g\	-nem	2dd\	-nem
!	!	!LO:TX:t=P::problem=kreska pseudotaktowa&colon;między nutą a kropką	!	!	!	!LO:TX:t=P:problem=kreska pseudotaktowa	!	!	!	!LO:TX:t=P:problem=kreska pseudotaktowa	!	!	!	!LO:TX:t=P:problem=kreska pseudotaktowa	!
.	.	2.D/	No-	.	.	2b\	-nem	.	.	2G/	-nem	1g\	No-	2dd\	.
=68-	=68-	=68-	=68-	=68-	=68-	=68-	=68-	=68-	=68-	=68-	=68-	=68-	=68-	=68-	=68-
*	*	*	*	*	*	*lig	*	*	*	*	*	*	*	*lig	*
0D\	No-	.	.	0d\	No-	1a\	No-	0D\	No-	0A\	No-	.	.	1dd\	No-
.	.	4E/	.	.	.	.	.	.	.	.	.	.	.	.	.
.	.	4F#X/	.	.	.	.	.	.	.	.	.	4f#X\	.	.	.
!	!	!LO:TX:t=P:problem=kreska pseudotaktowa	!	!	!	!	!	!	!	!	!	!LO:TX:t=P:problem=kreska pseudotaktowa	!	!	!
.	.	4G/	.	.	.	.	.	.	.	.	.	4e\	.	.	.
.	.	4A/	.	.	.	1dd\	.	.	.	.	.	1f#X\	.	1a\	.
.	.	4D/	.	.	.	.	.	.	.	.	.	.	.	.	.
.	.	2d\	-stram	.	.	.	.	.	.	.	.	.	.	.	.
*	*	*	*	*	*	*Xlig	*	*	*	*	*	*	*	*Xlig	*
=69-	=69-	=69-	=69-	=69-	=69-	=69-	=69-	=69-	=69-	=69-	=69-	=69-	=69-	=69-	=69-
!LO:TX:t=P:problem=kreska pseudotaktowa	!	!LO:TX:t=P:problem=kreska pseudotaktowa	!	!	!	!LO:TX:t=P:problem=kreska pseudotaktowa	!	!LO:TX:t=P:problem=kreska pseudotaktowa	!	!	!	!LO:TX:t=P:problem=kreska pseudotaktowa	!	!LO:TX:t=P:problem=kreska pseudotaktowa	!
0GG/	-ſtram	0B\	.	4d\	.	1dd\	-ſtram	1G\	ſtram	2G/	ſtram	1g\	-ſtram	1b\	-ſtram
.	.	.	.	4c\	.	.	.	.	.	.	.	.	.	.	.
.	.	.	.	4B\	.	.	.	.	.	1d\	Qui	.	.	.	.
!	!	!	!	!LO:TX:t=P:problem=kreska pseudotaktowa	!	!	!	!	!	!	!	!	!	!	!
.	.	.	.	4A\	.	.	.	.	.	.	.	.	.	.	.
.	.	.	.	1G/	-stram	0r	.	1G\	qui	.	.	2r	.	1b\	qui
!	!	!	!	!	!	!	!	!	!	!LO:TX:t=P::problem=kreska pseudotaktowa&colon;między nutą a kropką	!	!LO:TX:t=P:problem=kreska pseudotaktowa	!	!	!
.	.	.	.	.	.	.	.	.	.	2.e\	ſe-	2g\	Qui	.	.
!	!	!	!	!LO:LB:g=original	!	!	!	!	!	!	!	!	!	!	!
=70-	=70-	=70-	=70-	=70-	=70-	=70-	=70-	=70-	=70-	=70-	=70-	=70-	=70-	=70-	=70-
!	!	!LO:TX:t=P:problem=kreska pseudotaktowa	!	!LO:TX:t=P:problem=kreska pseudotaktowa	!	!	!	!	!	!	!	!	!	!	!
1r	.	1r	.	1r	.	.	.	1A\	ſe-	.	.	4c\	ſe-	1cc\	ſe-
.	.	.	.	.	.	.	.	.	.	4d\	.	4d\	.	.	.
.	.	.	.	.	.	.	.	.	.	2c\	.	4e\	.	.	.
!	!	!	!	!	!	!	!	!	!	!	!	!LO:TX:t=P:problem=# above	!	!	!
.	.	.	.	.	.	.	.	.	.	.	.	4f#X\	.	.	.
!	!	!	!	!	!	!	!	!LO:TX:t=P:problem=kreska pseudotaktowa	!	!LO:TX:t=P:problem=kreska pseudotaktowa	!	!	!	!LO:TX:t=P:problem=kreska pseudotaktowa	!
2r	.	4r	.	2r	.	2r	.	1G\	-des	1d\	-des	2g\	.	1b\	-des
.	.	4d\	ad	.	.	.	.	.	.	.	.	.	.	.	.
!LO:TX:t=P:problem=kreska pseudotaktowa	!	!	!	!	!	!LO:TX:t=P:problem=kreska pseudotaktowa	!	!	!	!	!	!LO:TX:t=P:problem=kreska pseudotaktowa	!	!	!
2G\	ad	4.B\	dex-	2d\	ad	2b\	ad	.	.	.	.	2g\	-des	.	.
!	!	!LO:TX:t=P:problem=kreska pseudotaktowa	!	!	!	!	!	!	!	!	!	!	!	!	!
.	.	8B\	-te-	.	.	.	.	.	.	.	.	.	.	.	.
!LO:LB:g=original	!	!LO:LB:g=original	!	!	!	!	!	!	!	!	!	!	!	!	!
=71-	=71-	=71-	=71-	=71-	=71-	=71-	=71-	=71-	=71-	=71-	=71-	=71-	=71-	=71-	=71-
!	!	!LO:TX:t=P:problem=kreska pseudotaktowa	!	!	!	!	!	!	!	!	!	!	!	!	!
2Fny\	dex-	1c\	-ram	4.f\	.	2a\	dex-	0r	.	0r	.	0r	.	0r	.
.	.	.	.	8c\	dex-	.	.	.	.	.	.	.	.	.	.
4E\	-te-	.	.	4e\	-te-	4g/	-te-	.	.	.	.	.	.	.	.
!LO:TX:t=P:problem=kreska pseudotaktowa	!	!	!	!	!	!	!	!	!	!	!	!	!	!	!
4E\	-ram	.	.	2e\	-ram	4g/	-ram	.	.	.	.	.	.	.	.
1A\	Pa-	1c\	Pa-	.	.	1cc\	Pa-	.	.	.	.	.	.	.	.
.	.	.	.	4d\	.	.	.	.	.	.	.	.	.	.	.
.	.	.	.	4e\	Pa-	.	.	.	.	.	.	.	.	.	.
!	!	!	!	!LO:TX:t=P:problem=kreska pseudotaktowa	!	!	!	!	!	!	!	!	!	!	!
.	.	.	.	4f#X\	.	.	.	.	.	.	.	.	.	.	.
=72-	=72-	=72-	=72-	=72-	=72-	=72-	=72-	=72-	=72-	=72-	=72-	=72-	=72-	=72-	=72-
!LO:TX:t=P:problem=kreska pseudotaktowa	!	!LO:TX:t=P:problem=kreska pseudotaktowa	!	!	!	!LO:TX:t=P:problem=kreska pseudotaktowa	!	!	!	!	!	!	!	!	!
1G\	-tris	1d\	-tris	2g\	.	1b\	-tris	2r	.	4r	.	2r	.	2r	.
.	.	.	.	.	.	.	.	.	.	4d\	Mi-	.	.	.	.
!	!	!	!	!	!	!	!	!	!	!LO:TX:t=P:problem=kreska pseudotaktowa	!	!LO:TX:t=P:problem=kreska pseudotaktowa	!	!LO:TX:t=P:problem=kreska pseudotaktowa	!
.	.	.	.	2g\	-tris	.	.	1G\	Mi-	2B\	-ſe-	2d\	Mi-	2dd\	Mi-
00r	.	00r	.	0r	.	00r	.	.	.	2d\	-re-	1g\	-ſe-	2b\	-ſe-
!	!	!	!	!	!	!	!	!	!	!LO:LB:g=original	!	!	!	!	!
!	!	!	!	!	!	!	!	!LO:TX:t=P:problem=kreska pseudotaktowa	!	!LO:TX:t=P:problem=kreska pseudotaktowa	!	!	!	!	!
.	.	.	.	.	.	.	.	2E\	-ſe-	2e\	-re	.	.	2cc\	-re-
=73-	=73-	=73-	=73-	=73-	=73-	=73-	=73-	=73-	=73-	=73-	=73-	=73-	=73-	=73-	=73-
!	!	!	!	!	!	!	!	!	!	!	!	!	!	!LO:TX:t=P:problem=kreska pseudotaktowa	!
.	.	.	.	.	.	.	.	2F\	-re-	4.c\	No-	1fny\	-re-	1a\	-re
.	.	.	.	.	.	.	.	.	.	16B\LL	.	.	.	.	.
.	.	.	.	.	.	.	.	.	.	16c\JJ	.	.	.	.	.
!	!	!	!	!	!	!	!	!LO:TX:t=P:problem=kreska pseudotaktowa	!	!	!	!	!	!	!
.	.	.	.	.	.	.	.	2D\	-re	2.d\	.	.	.	.	.
!	!	!	!	!LO:TX:t=P:problem=kreska pseudotaktowa	!	!	!	!LO:LB:g=original	!	!	!	!LO:TX:t=P:problem=kreska pseudotaktowa	!	!	!
.	.	.	.	1r	.	.	.	2.E\	No-	.	.	1e\	-re	0g\	No-
.	.	.	.	.	.	.	.	.	.	4c\	.	.	.	.	.
.	.	.	.	.	.	.	.	.	.	1c\	.	.	.	.	.
.	.	.	.	.	.	.	.	4F\	.	.	.	.	.	.	.
!	!	!	!	!	!	!	!	!	!	!	!	!LO:LB:g=original	!	!	!
=74-	=74-	=74-	=74-	=74-	=74-	=74-	=74-	=74-	=74-	=74-	=74-	=74-	=74-	=74-	=74-
!	!	!	!	!	!	!	!	!LO:TX:t=P:problem=kreska pseudotaktowa	!	!	!	!	!	!	!
.	.	.	.	2r	.	.	.	1G\	.	.	.	1d\	No-	.	.
!	!	!	!	!	!	!	!	!	!	!LO:TX:t=P:problem=kreska pseudotaktowa	!	!	!	!	!
.	.	.	.	2.g\	Quo-	.	.	.	.	2B\	.	.	.	.	.
1.C/	Quo-	1.c\	Quo-	.	.	2r	.	2C/	-bis	2c\	-bis	2e,\	-bis	2g,/	-bis
.	.	.	.	4fny\	.	.	.	.	.	.	.	.	.	.	.
.	.	.	.	4e\	.	1g/	Quo-	1C/	Quo-	1G/	Quo-	1e\	Quo-	1cc\	Quo-
!	!	!	!	!LO:TX:t=P:problem=kreska pseudotaktowa	!	!	!	!	!	!	!	!	!	!	!
.	.	.	.	4d\	.	.	.	.	.	.	.	.	.	.	.
=75-	=75-	=75-	=75-	=75-	=75-	=75-	=75-	=75-	=75-	=75-	=75-	=75-	=75-	=75-	=75-
.	.	.	.	2e\	.	.	.	.	.	.	.	.	.	.	.
!LO:TX:t=P:problem=kreska pseudotaktowa	!	!LO:TX:t=P:problem=kreska pseudotaktowa	!	!	!	!LO:TX:t=P:problem=kreska pseudotaktowa	!	!LO:TX:t=P:problem=kreska pseudotaktowa	!	!	!	!LO:TX:t=P:problem=kreska pseudotaktowa	!	!LO:TX:t=P:problem=kreska pseudotaktowa	!
2C/	-ni-	2c\	-ni-	2e\	-ni-	2g/	-ni-	2C/	-ni-	2G/	-ni-	2e\	-ni-	2cc\	-ni-
!	!	!	!	!	!	!	!	!LO:TX:t=P:problem=kreska pseudotaktowa	!	!LO:TX:t=P:problem=kreska pseudotaktowa	!	!LO:TX:t=P:problem=kreska pseudotaktowa	!	!	!
2FF/	-am	2A\	-am	2c/	-am	2.a\	-am	1F\	-am	1F/	-am	1f\	-am	0cc\	-am
!	!	!	!	!LO:TX:t=P:problem=kreska pseudotaktowa	!	!	!	!	!	!	!	!	!	!	!
2F\	tu	2c\	tu	2A/	tu	.	.	.	.	.	.	.	.	.	.
!	!	!	!	!	!	!LO:TX:t=P:problem=kreska pseudotaktowa	!	!	!	!	!	!	!	!	!
.	.	.	.	.	.	4g/	.	.	.	.	.	.	.	.	.
!	!	!	!	!	!	!LO:LB:g=original	!	!	!	!	!	!	!	!	!
=76-	=76-	=76-	=76-	=76-	=76-	=76-	=76-	=76-	=76-	=76-	=76-	=76-	=76-	=76-	=76-
2F\	ſo-	2A\	ſo-	1c\	ſo-	2fny/	.	0r	.	0r	.	0r	.	.	.
!LO:TX:t=P:problem=kreska pseudotaktowa	!	!LO:TX:t=P:problem=kreska pseudotaktowa	!	!	!	!LO:TX:t=P:problem=kreska pseudotaktowa	!	!	!	!	!	!	!	!	!
2E\	-lus	2G\	-lus	.	.	2g/	tu	.	.	.	.	.	.	.	.
!	!	!	!	!	!	!	!	!	!	!	!	!	!	!LO:TX:t=P:problem=kreska pseudotaktowa	!
1D\	ſan-	4Fny\	San-	2d\	-lus	2a\	ſo-	.	.	.	.	.	.	1r	.
.	.	4G\	.	.	.	.	.	.	.	.	.	.	.	.	.
.	.	4A\	.	1f\	ſan-	2d/	-lus	.	.	.	.	.	.	.	.
.	.	4B\	.	.	.	.	.	.	.	.	.	.	.	.	.
=77-	=77-	=77-	=77-	=77-	=77-	=77-	=77-	=77-	=77-	=77-	=77-	=77-	=77-	=77-	=77-
!LO:TX:t=P:problem=kreska pseudotaktowa	!	!	!	!	!	!	!	!	!	!	!	!	!	!	!
1C/	-ctus	2c\	.	.	.	2g/	ſan-	2r	.	2r	.	2r	.	2r	.
!	!	!LO:TX:t=P:problem=kreska pseudotaktowa	!	!LO:TX:t=P:problem=kreska pseudotaktowa	!	!LO:TX:t=P:problem=kreska pseudotaktowa	!	!LO:TX:t=P:problem=kreska pseudotaktowa	!	!LO:TX:t=P:problem=kreska pseudotaktowa	!	!LO:TX:t=P:problem=kreska pseudotaktowa	!	!	!
.	.	2c\	-ctus	2e\	-ctus	2g/	-ctus	2C/	tu	2G/	tu	2c/	tu	2e/	tu
!	!	!	!	!	!	!	!	!	!	!	!	!	!	!LO:TX:t=P:problem=kreska pseudotaktowa	!
0r	.	0r	.	0r	.	0r	.	2C/	ſo-	2E/	ſo-	2e\	ſo-	1g\	ſo-
!	!	!	!	!	!	!	!	!LO:TX:t=P:problem=kreska pseudotaktowa	!	!	!	!LO:TX:t=P:problem=kreska pseudotaktowa	!	!	!
.	.	.	.	.	.	.	.	2BB/	-lus	4G/	-lus	2d\	-lus	.	.
.	.	.	.	.	.	.	.	.	.	2G/	Do-	.	.	.	.
=78-	=78-	=78-	=78-	=78-	=78-	=78-	=78-	=78-	=78-	=78-	=78-	=78-	=78-	=78-	=78-
.	.	.	.	.	.	.	.	2.AA/	Do-	.	.	2c/	ſan-	2a\	-lus
.	.	.	.	.	.	.	.	.	.	8F#X/L	.	.	.	.	.
.	.	.	.	.	.	.	.	.	.	8E/J	.	.	.	.	.
!	!	!	!	!	!	!	!	!	!	!	!	!LO:TX:t=P:problem=kreska pseudotaktowa	!	!	!
.	.	.	.	.	.	.	.	.	.	4.F#X/	.	2A/	.	2.cc\	Do-
.	.	.	.	.	.	.	.	4AA/	-mi-	.	.	.	.	.	.
!	!	!	!	!	!	!	!	!	!	!LO:TX:t=P:problem=kreska pseudotaktowa	!	!	!	!	!
.	.	.	.	.	.	.	.	.	.	8F#/	-mi-	.	.	.	.
!	!	!	!	!	!	!	!	!LO:TX:t=P:problem=kreska pseudotaktowa	!	!	!	!LO:TX:t=P:problem=kreska pseudotaktowa	!	!	!
2r	.	2r	.	2r	.	2g/	tu	1GG/	-nus	1G/	-nus	1d\	-ctus	.	.
.	.	.	.	.	.	.	.	.	.	.	.	.	.	4cc\	-mi-
!LO:TX:t=P:problem=kreska pseudotaktowa	!	!	!	!	!	!	!	!	!	!	!	!	!	!LO:TX:t=P:problem=kreska pseudotaktowa	!
2GG/	tu	1B\	tu	1d\	tu	2.dd\	ſo-	.	.	.	.	.	.	2b\	-n(us)
!	!	!	!	!	!	!	!	!	!	!	!	!	!	!LO:LB:g=original	!
=79-	=79-	=79-	=79-	=79-	=79-	=79-	=79-	=79-	=79-	=79-	=79-	=79-	=79-	=79-	=79-
1G\	ſo-	.	.	.	.	.	.	0r	.	0r	.	0r	.	0r	.
.	.	.	.	.	.	4cc\	.	.	.	.	.	.	.	.	.
!	!	!LO:TX:t=P:problem=kreska pseudotaktowa	!	!	!	!LO:TX:t=P:problem=kreska pseudotaktowa	!	!	!	!	!	!	!	!	!
.	.	2d\	ſo-	2.g\	ſo-	2b\	.	.	.	.	.	.	.	.	.
2G\	-lus	2G/	-lus	.	.	2b\	-lus	.	.	.	.	.	.	.	.
.	.	.	.	4d\	-lus	.	.	.	.	.	.	.	.	.	.
!LO:TX:t=P:problem=kreska pseudotaktowa	!	!	!	!LO:TX:t=P:problem=kreska pseudotaktowa	!	!	!	!	!	!	!	!	!	!	!
2F\	al-	2A/	Al-	2f\	al-	2dd\	al-	.	.	.	.	.	.	.	.
=80-	=80-	=80-	=80-	=80-	=80-	=80-	=80-	=80-	=80-	=80-	=80-	=80-	=80-	=80-	=80-
!	!	!	!	!	!	!	!	!LO:TX:t=P:problem=kreska pseudotaktowa	!	!LO:TX:t=P:problem=kreska pseudotaktowa	!	!LO:TX:t=P:problem=kreska pseudotaktowa	!	!LO:TX:t=P:problem=kreska pseudotaktowa	!
2.E\	-tiſ-	2B\	-tiſ-	2.g\	-tiſ-	2.ee\	-tiſ-	1r	.	1r	.	1r	.	1r	.
!	!	!LO:TX:t=P:problem=kreska pseudotaktowa	!	!	!	!	!	!	!	!	!	!	!	!	!
.	.	2c#X\	-si-	.	.	.	.	.	.	.	.	.	.	.	.
!	!	!	!	!LO:TX:t=P:problem=kreska pseudotaktowa	!	!LO:TX:t=P:problem=kreska pseudotaktowa	!	!	!	!	!	!	!	!	!
4E\	-si-	.	.	4g\	-si-	4ee\	-si-	.	.	.	.	.	.	.	.
!	!	!	!	!LO:LB:g=original	!	!	!	!	!	!	!	!	!	!	!
2D,\	-mus	1d\	-mus	2f\	-mus	2a,\	-mus	2.D\	Je-	1.A\	Je-	1.f\	Je-	1.dd\	Je-
!	!	!	!	!	!	!LO:TX:t=P:problem=kreska pseudotaktowa	!	!	!	!	!	!	!	!	!
1D\	Je-	.	.	1d\	.	2a\	Je-	.	.	.	.	.	.	.	.
.	.	.	.	.	.	.	.	4E\	.	.	.	.	.	.	.
=81-	=81-	=81-	=81-	=81-	=81-	=81-	=81-	=81-	=81-	=81-	=81-	=81-	=81-	=81-	=81-
.	.	4r	.	.	.	2a\	-ſu	2F\	-ſu	.	.	.	.	.	.
.	.	2A/	Je-	.	.	.	.	.	.	.	.	.	.	.	.
!LO:TX:t=P:problem=kreska pseudotaktowa	!	!	!	!LO:TX:t=P:problem=kreska pseudotaktowa	!	!	!	!LO:TX:t=P:problem=kreska pseudotaktowa	!	!LO:TX:t=P:problem=kreska pseudotaktowa	!	!	!	!	!
2AA/	-ſu	.	.	2e\	Je-	1a\	Chri-	2A\	.	2c\	-ſu	2e\	-ſu	2cc\	-ſu
!	!	!LO:TX:t=P:problem=kreska pseudotaktowa	!	!	!	!	!	!	!	!	!	!	!	!	!
.	.	4E/	-ſu	.	.	.	.	.	.	.	.	.	.	.	.
0E\	Chri-	4E/	Chri-	2.e\	-ſu	.	.	0E\	Chri-	2r	.	0e\	Chri-	0b\	Chri-
.	.	4F#X/	.	.	.	.	.	.	.	.	.	.	.	.	.
!	!	!LO:TX:t=P:problem=# below	!	!	!	!	!	!	!	!	!	!	!	!	!
.	.	4G#X/	.	.	.	4g#X/	.	.	.	2.e\	Chri-	.	.	.	.
!	!	!LO:TX:t=P:problem=kreska pseudotaktowa	!	!	!	!	!	!	!	!	!	!	!	!	!
.	.	4A/	.	8d\L	.	4f#X/	.	.	.	.	.	.	.	.	.
!	!	!	!	!LO:TX:t=P:problem=kreska pseudotaktowa	!	!	!	!	!	!	!	!	!	!	!
.	.	.	.	8c\J	.	.	.	.	.	.	.	.	.	.	.
!	!	!LO:LB:g=original	!	!	!	!	!	!	!	!	!	!	!	!	!
=82-	=82-	=82-	=82-	=82-	=82-	=82-	=82-	=82-	=82-	=82-	=82-	=82-	=82-	=82-	=82-
.	.	2B\	.	2B/	Chri-	1g#X\	-ste	.	.	.	.	.	.	.	.
.	.	.	.	.	.	.	.	.	.	8d\L	.	.	.	.	.
.	.	.	.	.	.	.	.	.	.	8c\J	.	.	.	.	.
!	!	!	!	!	!	!	!	!	!	!LO:TX:t=P:problem=kreska pseudotaktowa	!	!	!	!	!
.	.	2E/	.	4.e\	.	.	.	.	.	2B\	.	.	.	.	.
.	.	.	.	8d\	.	.	.	.	.	.	.	.	.	.	.
!LO:TX:t=P:problem=kreska pseudotaktowa	!	!LO:TX:t=P:problem=kreska pseudotaktowa	!	!LO:TX:t=P:problem=kreska pseudotaktowa	!	!LO:TX:t=P:problem=kreska pseudotaktowa	!	!	!	!	!	!	!	!	!
1AA/	-ſte	1E/	-ste	1c\	-ste	1a\	.	2A,\	-ſte	2A,\	-ste	2e,\	-ſte	2cc\	-ſte
!	!	!	!	!	!	!	!	!LO:TX:t=P:problem=kreska pseudotaktowa	!	!	!	!LO:TX:t=P:problem=kreska pseudotaktowa	!	!LO:TX:t=P:problem=kreska pseudotaktowa	!
.	.	.	.	.	.	.	.	2A\	Cum	2c\	Cum	2e\	Cum	2a\	Cum
=83-	=83-	=83-	=83-	=83-	=83-	=83-	=83-	=83-	=83-	=83-	=83-	=83-	=83-	=83-	=83-
0r	.	0r	.	0r	.	1r	.	2A\	ſan-	2A\	ſan-	2e\	ſan-	2cc\	ſan-
!	!	!	!	!	!	!	!	!	!	!LO:TX:t=P:problem=kreska pseudotaktowa	!	!	!	!LO:TX:t=P:problem=kreska pseudotaktowa	!
.	.	.	.	.	.	.	.	2G#X\	-cto	2B\	-cto	2e\	-cto	2b\	-cto
!	!	!	!	!	!	!	!	!	!	!LO:LB:g=original	!	!	!	!	!
.	.	.	.	.	.	2r	.	2.A\	ſpi-	4c#X\	Spi-	2.e\	ſpi-	2.a\	ſpi-
.	.	.	.	.	.	.	.	.	.	2d\	.	.	.	.	.
!	!	!	!	!	!	!LO:TX:t=P:problem=kreska pseudotaktowa	!	!	!	!	!	!	!	!	!
.	.	.	.	.	.	2a\	Cum	.	.	.	.	.	.	.	.
!	!	!	!	!	!	!	!	!LO:TX:t=P:problem=kreska pseudotaktowa	!	!	!	!	!	!	!
.	.	.	.	.	.	.	.	4A\	-ri-	4c#X\	-ri-	4e\	-ri-	4a\	-ri-
=84-	=84-	=84-	=84-	=84-	=84-	=84-	=84-	=84-	=84-	=84-	=84-	=84-	=84-	=84-	=84-
!	!	!	!	!	!	!	!	!	!	!LO:TX:t=P:problem=kreska pseudotaktowa	!	!LO:TX:t=P:problem=kreska pseudotaktowa	!	!LO:TX:t=P:problem=kreska pseudotaktowa	!
2r	.	2r	.	2r	.	4a\	San-	1D\	-tu	1d\	-tu	1f\	-tu	1a\	-tu
.	.	.	.	.	.	4gny\	.	.	.	.	.	.	.	.	.
!LO:TX:t=P:problem=kreska pseudotaktowa	!	!LO:TX:t=P:problem=kreska pseudotaktowa	!	!LO:TX:t=P:problem=kreska pseudotaktowa	!	!	!	!	!	!	!	!	!	!	!
2D/	Cum	2A/	Cum	2d\	Cum	4fny/	.	.	.	.	.	.	.	.	.
!	!	!	!	!	!	!LO:TX:t=P:problem=kreska pseudotaktowa	!	!	!	!	!	!	!	!	!
.	.	.	.	.	.	4e/	.	.	.	.	.	.	.	.	.
!LO:LB:g=original	!	!	!	!	!	!LO:LB:g=original	!	!LO:TX:t=P:problem=kreska pseudotaktowa	!	!	!	!	!	!	!
2D/	San-	2A/	ſan-	2f\	ſan-	2d/	-cto	0r	.	1r	.	0r	.	0r	.
!LO:TX:t=P:problem=kreska pseudotaktowa	!	!LO:TX:t=P:problem=kreska pseudotaktowa	!	!	!	!LO:TX:t=P:problem=kreska pseudotaktowa	!	!	!	!	!	!	!	!	!
2C#X/	-cto	2A/	-cto	2e\	-cto	2e/	.	.	.	.	.	.	.	.	.
=85-	=85-	=85-	=85-	=85-	=85-	=85-	=85-	=85-	=85-	=85-	=85-	=85-	=85-	=85-	=85-
2.D/	Spi-	2.A/	ſpi-	2.d\	ſpi-	4f#X/	.	.	.	2r	.	.	.	.	.
.	.	.	.	.	.	2g/	Spi-	.	.	.	.	.	.	.	.
!	!	!	!	!	!	!	!	!	!	!LO:TX:t=P:problem=kreska pseudotaktowa	!	!	!	!	!
.	.	.	.	.	.	.	.	.	.	2d\	In	.	.	.	.
!	!	!	!	!LO:TX:t=P:problem=kreska pseudotaktowa	!	!	!	!	!	!	!	!	!	!	!
4D/	-ri-	4A/	-ri-	4d\	-ri-	4f#X/	-ri-	.	.	.	.	.	.	.	.
!LO:TX:t=P:problem=kreska pseudotaktowa	!	!LO:TX:t=P:problem=kreska pseudotaktowa	!	!LO:TX:t=P:problem=kreska pseudotaktowa	!	!LO:TX:t=P:problem=kreska pseudotaktowa	!	!	!	!	!	!	!	!	!
1GG/	-tu	1Gny/	-tu	1d\	-tu	1g\	-tu	2r	.	2B\	glo-	2r	.	2r	.
!	!	!	!	!	!	!	!	!	!	!	!	!	!	!LO:TX:t=P:problem=kreska pseudotaktowa	!
.	.	.	.	.	.	.	.	2Gny\	in	4B\	-ri-	2d\	In	2g/	in
!	!	!	!	!	!	!	!	!	!	!LO:TX:t=P:problem=kreska pseudotaktowa	!	!	!	!	!
.	.	.	.	.	.	.	.	.	.	4B\	-a	.	.	.	.
!	!	!	!	!	!	!	!	!LO:LB:g=original	!	!	!	!	!	!	!
=86-	=86-	=86-	=86-	=86-	=86-	=86-	=86-	=86-	=86-	=86-	=86-	=86-	=86-	=86-	=86-
0r	.	0r	.	0r	.	0r	.	2G\	glo-	1d\	DE-	2g\	glo-	2b\	glo-
.	.	.	.	.	.	.	.	4G\	-ri-	.	.	4g\	-ri-	4b\	-ri-
!	!	!	!	!	!	!	!	!LO:TX:t=P:problem=kreska pseudotaktowa	!	!	!	!LO:TX:t=P:problem=kreska pseudotaktowa	!	!	!
.	.	.	.	.	.	.	.	4G\	-a	.	.	4g\	-a	4b\	-a
!	!	!	!	!	!	!	!	!	!	!LO:TX:t=P:problem=kreska pseudotaktowa	!	!	!	!	!
.	.	.	.	.	.	.	.	2C/	DE-	1e\	-i	2g\	DE-	2cc\	DE-
!	!	!	!	!	!	!	!	!	!	!	!	!	!	!LO:TX:t=P:problem=kreska pseudotaktowa	!
.	.	.	.	.	.	.	.	2C/	-i	.	.	2g\	-i	2cc\	-i
=87-	=87-	=87-	=87-	=87-	=87-	=87-	=87-	=87-	=87-	=87-	=87-	=87-	=87-	=87-	=87-
!	!	!	!	!LO:TX:t=P:problem=kreska pseudotaktowa	!	!	!	!	!	!	!	!	!	!	!
1r	.	2r	.	1r	.	1r	.	4D\	Pa-	4d\	Pa-	4f\	Pa-	4a\	Pa-
.	.	.	.	.	.	.	.	4F\	-tris	4A\	-tris	4d\	-tris	4a\	-tris
!	!	!LO:TX:t=P:problem=kreska pseudotaktowa	!	!	!	!	!	!LO:TX:t=P:problem=kreska pseudotaktowa	!	!	!	!LO:TX:t=P:problem=kreska pseudotaktowa	!	!	!
.	.	2e\	Cum	.	.	.	.	2E\	a-	2B\	a-	2e\	a-	2g#X\	a-
!	!	!	!	!	!	!	!	!LO:TX:t=P:problem=kreska pseudotaktowa	!	!LO:TX:t=P:problem=kreska pseudotaktowa	!	!LO:LB:g=original	!	!LO:TX:t=P:problem=kreska pseudotaktowa	!
2r	.	4e\	ſan-	2r	.	2r	.	1AA/	-men	1A\	-men	1e\	-men	1a\	-men
.	.	4d\	.	.	.	.	.	.	.	.	.	.	.	.	.
!LO:TX:t=P:problem=kreska pseudotaktowa	!	!	!	!	!	!LO:TX:t=P:problem=kreska pseudotaktowa	!	!	!	!	!	!	!	!	!
2A\	Cum	4cny\	.	2e\	Cum	2a\	Cum	.	.	.	.	.	.	.	.
!	!	!LO:TX:t=P:problem=kreska pseudotaktowa	!	!	!	!	!	!	!	!	!	!	!	!	!
.	.	4B\	.	.	.	.	.	.	.	.	.	.	.	.	.
=88-	=88-	=88-	=88-	=88-	=88-	=88-	=88-	=88-	=88-	=88-	=88-	=88-	=88-	=88-	=88-
2A\	ſan-	2A\	.	2e\	ſan-	2cc\	ſan-	1r	.	1r	.	1r	.	1r	.
!	!	!LO:TX:t=P:problem=kreska pseudotaktowa	!	!LO:TX:t=P:problem=kreska pseudotaktowa	!	!	!	!	!	!	!	!	!	!	!
2G#X\	-cto	2B\	-cto	2e\	-cto	2b\	-cto	.	.	.	.	.	.	.	.
2.A\	Spi-	4c#X\	Spi-	2.e\	ſpi-	2.a\	ſpi-	2r	.	2r	.	2r	.	2e/	in
.	.	2d\	-ri-	.	.	.	.	.	.	.	.	.	.	.	.
!	!	!	!	!	!	!	!	!LO:TX:t=P:problem=kreska pseudotaktowa	!	!LO:TX:t=P:problem=kreska pseudotaktowa	!	!LO:TX:t=P:problem=kreska pseudotaktowa	!	!	!
.	.	.	.	.	.	.	.	2AA/	In	2A\	in	2e\	in	2.a\	glo-
4A\	-ri-	4c#X\	tu	4e\	-ri-	4a\	-ri-	.	.	.	.	.	.	.	.
=89-	=89-	=89-	=89-	=89-	=89-	=89-	=89-	=89-	=89-	=89-	=89-	=89-	=89-	=89-	=89-
!LO:TX:t=P:problem=kreska pseudotaktowa	!	!LO:TX:t=P:problem=kreska pseudotaktowa	!	!LO:TX:t=P:problem=kreska pseudotaktowa	!	!LO:TX:t=P:problem=kreska pseudotaktowa	!	!	!	!	!	!	!	!	!
1D\	tu	1d\	.	1f#X\	-tu	1a\	-tu	2D/	glo-	2A\	glo-	2d\	glo-	.	.
.	.	.	.	.	.	.	.	.	.	.	.	.	.	4a\	-ri-
!	!	!	!	!	!	!	!	!	!	!	!	!	!	!LO:TX:t=P:problem=kreska pseudotaktowa	!
.	.	.	.	.	.	.	.	4D/	-ri-	4A\	-ri-	4d\	-ri-	2f#X/	-a
!	!	!	!	!	!	!	!	!LO:TX:t=P:problem=kreska pseudotaktowa	!	!	!	!	!	!	!
.	.	.	.	.	.	.	.	4D/	-a	4A\	-a	4d\	-a	.	.
0r	.	0r	.	0r	.	0r	.	2GG/	DE-	2B\	DE-	2.d\	DE-	2gny/	DE-
!	!	!	!	!	!	!	!	!	!	!LO:TX:t=P:problem=kreska pseudotaktowa	!	!	!	!LO:TX:t=P:problem=kreska pseudotaktowa	!
.	.	.	.	.	.	.	.	2G\	-i	2B\	-i	.	.	2g/	-i
!	!	!	!	!	!	!	!	!	!	!	!	!LO:TX:t=P:problem=kreska pseudotaktowa	!	!	!
.	.	.	.	.	.	.	.	.	.	.	.	4e\	-i	.	.
!	!	!	!	!	!	!	!	!	!	!	!	!	!	!LO:LB:g=original	!
=90-	=90-	=90-	=90-	=90-	=90-	=90-	=90-	=90-	=90-	=90-	=90-	=90-	=90-	=90-	=90-
.	.	.	.	.	.	.	.	4F\	Pa-	4cny\	Pa-	4f\	Pa-	4a\	Pa-
.	.	.	.	.	.	.	.	4A\	-tris	4c\	-tris	4e\	-tris	4cc\	-tris
.	.	.	.	.	.	.	.	2G\	a-	2d\	a-	2g\	a-	2b\	a-
!	!	!	!	!	!	!	!	!LO:TX:t=P:problem=kreska pseudotaktowa	!	!LO:TX:t=P:problem=kreska pseudotaktowa	!	!LO:TX:t=P:problem=kreska pseudotaktowa	!	!LO:TX:t=P:problem=kreska pseudotaktowa	!
2r	.	2r	.	2c/	in	4r	.	1C/	-men	1c\	-men	1e\	-men	1cc\	-men
.	.	.	.	.	.	2g/	in	.	.	.	.	.	.	.	.
!LO:TX:t=P:problem=kreska pseudotaktowa	!	!LO:TX:t=P:problem=kreska pseudotaktowa	!	!	!	!	!	!	!	!	!	!	!	!	!
2Cny/	in	2e\	In	2.g\	glo-	.	.	.	.	.	.	.	.	.	.
.	.	.	.	.	.	2cc\	glo-	.	.	.	.	.	.	.	.
=91-	=91-	=91-	=91-	=91-	=91-	=91-	=91-	=91-	=91-	=91-	=91-	=91-	=91-	=91-	=91-
2C/	glo-	2e\	glo-	.	.	.	.	0r	.	0r	.	0r	.	0r	.
.	.	.	.	4g\	-ri-	4cc\	-ri-	.	.	.	.	.	.	.	.
!	!	!	!	!	!	!LO:TX:t=P:problem=kreska pseudotaktowa	!	!	!	!	!	!	!	!	!
4C/	-ri-	4e\	-ri-	2g\	-a	2cc\	-a	.	.	.	.	.	.	.	.
!	!	!LO:TX:t=P:problem=kreska pseudotaktowa	!	!	!	!	!	!	!	!	!	!	!	!	!
4C/	-a	4e\	-a	.	.	.	.	.	.	.	.	.	.	.	.
!	!	!	!	!LO:LB:g=original	!	!	!	!	!	!	!	!	!	!	!
2F\	DE-	2cny\	DE-	2fny\	DE-	2a\	DE-	.	.	.	.	.	.	.	.
!LO:TX:t=P:problem=kreska pseudotaktowa	!	!LO:TX:t=P:problem=kreska pseudotaktowa	!	!LO:TX:t=P:problem=kreska pseudotaktowa	!	!	!	!	!	!	!	!	!	!	!
2F\	-i	2c\	-i	2f\	-i	2a\	-i	.	.	.	.	.	.	.	.
!	!	!LO:LB:g=original	!	!	!	!	!	!	!	!	!	!	!	!	!
=92-	=92-	=92-	=92-	=92-	=92-	=92-	=92-	=92-	=92-	=92-	=92-	=92-	=92-	=92-	=92-
4Gny\	Pa-	4B\	Pa-	4d\	Pa-	4g\	Pa-	2r	.	2r	.	2r	.	2r	.
4B-X\	-tris	4d\	-tris	4d\	-tris	4g\	-tris	.	.	.	.	.	.	.	.
!LO:TX:t=P:problem=kreska pseudotaktowa	!	!LO:TX:t=P:problem=kreska pseudotaktowa	!	!LO:TX:t=P:problem=kreska pseudotaktowa	!	!LO:TX:t=P:problem=kreska pseudotaktowa	!	!	!	!	!	!	!	!LO:TX:t=P:problem=kreska pseudotaktowa	!
2A\	a-	2c#X\	a-	2e\	a-	2a\	A-	2AA/	In	4E/	in	1A/	in	2ee\	in
.	.	.	.	.	.	.	.	.	.	4.A/	glo-	.	.	.	.
2D/	-men	2d\	-men	2f#X\	-men	2a\	-men	2.D/	glo-	.	.	.	.	2dd\	glo-
.	.	.	.	.	.	.	.	.	.	8G/L	.	.	.	.	.
.	.	.	.	.	.	.	.	.	.	8F#X/	.	.	.	.	.
.	.	.	.	.	.	.	.	.	.	8E/J	.	.	.	.	.
!LO:TX:t=P:problem=kreska pseudotaktowa	!	!	!	!LO:TX:t=P:problem=kreska pseudotaktowa	!	!	!	!	!	!	!	!	!	!	!
2D/	in	4A\	in	2f#\	In	2dd\	in	.	.	4F#X/	.	4.d\	glo-	4dd\	-ri-
!	!	!	!	!	!	!	!	!LO:TX:t=P:problem=kreska pseudotaktowa	!	!LO:TX:t=P:problem=kreska pseudotaktowa	!	!	!	!LO:TX:t=P:problem=kreska pseudotaktowa	!
.	.	4.d\	glo-	.	.	.	.	4D/	-ri-	4A/	-ri-	.	.	4a\	-a
!	!	!	!	!	!	!	!	!	!	!	!	!LO:TX:t=P:problem=kreska pseudotaktowa	!	!	!
.	.	.	.	.	.	.	.	.	.	.	.	8d\	-ri-	.	.
=93-	=93-	=93-	=93-	=93-	=93-	=93-	=93-	=93-	=93-	=93-	=93-	=93-	=93-	=93-	=93-
2.G\	glo-	.	.	2.g\	glo-	2.dd\	glo-	2GG/	-a	2G/	-a	4d\	-a	2b\	DE-
.	.	8cny\L	.	.	.	.	.	.	.	.	.	.	.	.	.
.	.	8B\	.	.	.	.	.	.	.	.	.	4d\	in	.	.
.	.	8A\J	.	.	.	.	.	.	.	.	.	.	.	.	.
*	*	*	*	*	*	*	*	*	*	*	*ij	*	*	*	*
!	!	!	!	!	!	!	!	!	!	!LO:LB:g=original	!	!	!	!	!
!	!	!	!	!	!	!	!	!	!	!LO:TX:t=P:problem=kreska pseudotaktowa	!	!	!	!	!
.	.	4B\	.	.	.	.	.	2GG/	in	2G/	in	4d\	glo-	4b,<\	-i
!LO:TX:t=P:problem=kreska pseudotaktowa	!	!LO:TX:t=P:problem=kreska pseudotaktowa	!	!	!	!LO:TX:t=P:problem=kreska pseudotaktowa	!	!	!	!	!	!	!	!LO:TX:t=P:problem=kreska pseudotaktowa	!
4G\	-ri-	4d\	-ri-	4g\	-ri-	4dd\	-ri-	.	.	.	.	4g\	-ri-	4b\	in
*	*	*	*	*	*	*lig	*	*	*	*	*	*	*	*	*
!LO:LB:g=original	!	!	!	!LO:TX:t=P:problem=kreska pseudotaktowa	!	!	!	!	!	!	!	!LO:TX:t=P:problem=kreska pseudotaktowa	!	!	!
4C/	.	2c\	-a	0g\	-a	1ee\	-a	2C/	glo-	2G/	glo-	1e\	-a	2cc\	glo-
4D/	-a	.	.	.	.	.	.	.	.	.	.	.	.	.	.
!	!	!LO:TX:t=P:problem=kreska pseudotaktowa	!	!	!	!	!	!	!	!	!	!	!	!	!
4E/	.	2c\	in	.	.	.	.	4C/	-ri-	4G/	-ri-	.	.	4cc\	-ri-
!	!	!	!	!	!	!	!	!LO:TX:t=P:problem=kreska pseudotaktowa	!	!LO:TX:t=P:problem=kreska pseudotaktowa	!	!	!	!	!
4C/	.	.	.	.	.	.	.	4C/	-a	4G/	-a	.	.	4cc\	-a
*	*	*	*	*	*	*	*	*	*	*	*Xij	*	*	*	*
=94-	=94-	=94-	=94-	=94-	=94-	=94-	=94-	=94-	=94-	=94-	=94-	=94-	=94-	=94-	=94-
!LO:TX:t=P:problem=kreska pseudotaktowa	!	!	!	!	!	!LO:TX:t=P:problem=kreska pseudotaktowa	!	!	!	!	!	!	!	!	!
1G\	.	4.d\	glo-	.	.	1dd\	.	2GG/	DE-	2B\	DE-	4r	.	2b\	DE-
.	.	.	.	.	.	.	.	.	.	.	.	2d\	DE-	.	.
.	.	8d\	-ri-	.	.	.	.	.	.	.	.	.	.	.	.
!	!	!	!	!	!	!	!	!	!	!	!	!	!	!LO:TX:t=P:problem=kreska pseudotaktowa	!
.	.	2B\	-a	.	.	.	.	2GG/	-i	2d\	-i	.	.	2b\	-i
!	!	!	!	!	!	!	!	!	!	!	!	!LO:TX:t=P:problem=kreska pseudotaktowa	!	!	!
.	.	.	.	.	.	.	.	.	.	.	.	4g\	-i	.	.
!	!	!	!	!	!	!	!	!LO:LB:g=original	!	!	!	!	!	!	!
!	!	!LO:TX:t=P:problem=kreska pseudotaktowa	!	!	!	!LO:LB:g=original	!	!LO:TX:t=P:problem=kreska pseudotaktowa	!	!	!	!	!	!	!
*	*	*	*	*	*	*Xlig	*	*	*	*	*	*	*	*	*
1r	.	1r	.	2r	.	2r	.	4AA/	Pa-	4c\	Pa-	4e\	Pa-	4a\	Pa-
.	.	.	.	.	.	.	.	4AA/	-tris	4c\	-tris	4e\	-tris	4a\	-tris
!	!	!	!	!	!	!	!	!LO:TX:t=P:problem=kreska pseudotaktowa	!	!LO:TX:t=P:problem=kreska pseudotaktowa	!	!	!	!LO:TX:t=P:problem=kreska pseudotaktowa	!
.	.	.	.	4r	.	1ee\	DE-	2E\	a-	2B\	a-	2e\	a-	2g#X\	a-
!	!	!	!	!LO:TX:t=P:problem=kreska pseudotaktowa	!	!	!	!	!	!	!	!	!	!	!
.	.	.	.	4e\	DE-	.	.	.	.	.	.	.	.	.	.
=95-	=95-	=95-	=95-	=95-	=95-	=95-	=95-	=95-	=95-	=95-	=95-	=95-	=95-	=95-	=95-
2r	.	4r	.	4c/	-i	.	.	2AA/	-men	2A\	-men	2e\	-men	2a\	-men
.	.	2e\	DE-	8A/L	Pa-	.	.	.	.	.	.	.	.	.	.
.	.	.	.	8B/	.	.	.	.	.	.	.	.	.	.	.
!LO:TX:t=P:problem=kreska pseudotaktowa	!	!	!	!	!	!LO:TX:t=P:problem=kreska pseudotaktowa	!	!LO:TX:t=P:problem=kreska pseudotaktowa	!	!LO:TX:t=P:problem=kreska pseudotaktowa	!	!LO:TX:t=P:problem=kreska pseudotaktowa	!	!	!
2AA/	DE-	.	.	8c/	.	2cc\	-i	2A\	DE-	2A\	DE-	2e\	DE-	4r	.
.	.	.	.	8d/J	.	.	.	.	.	.	.	.	.	.	.
!	!	!LO:TX:t=P:problem=kreska pseudotaktowa	!	!	!	!	!	!	!	!	!	!	!	!LO:TX:t=P:problem=kreska pseudotaktowa	!
.	.	4c\	-i	2e\	.	.	.	.	.	.	.	.	.	4ee\	DE-
4E\	-i	2B\	Pa-	.	.	4r	.	4G#X\	-i	4B\	-i	4e\	-i	4ee\	-i
2E\	Pa-	.	.	4B/	-tris	2b\	Pa-	2G#\	Pa-	2B\	Pa-	2e\	Pa-	4ee\	Pa-
!	!	!LO:TX:t=P:problem=kreska pseudotaktowa	!	!	!	!	!	!	!	!	!	!	!	!LO:TX:t=P:problem=kreska pseudotaktowa	!
.	.	2E/	-tris	4.e\	A-	.	.	.	.	.	.	.	.	2ee\	-tris
!LO:TX:t=P:problem=kreska pseudotaktowa	!	!	!	!	!	!LO:TX:t=P:problem=kreska pseudotaktowa	!	!	!	!	!	!	!	!	!
4E\	-tris	.	.	.	.	4b\	-tris	4G#X\	-tris	4B\	-tris	4e\	-tris	.	.
!	!	!	!	!LO:TX:t=P:problem=kreska pseudotaktowa	!	!	!	!	!	!	!	!	!	!	!
.	.	.	.	8d\	.	.	.	.	.	.	.	.	.	.	.
=96-	=96-	=96-	=96-	=96-	=96-	=96-	=96-	=96-	=96-	=96-	=96-	=96-	=96-	=96-	=96-
*	*	*	*	*	*	*	*	*lig	*	*	*	*	*	*	*
!	!	!	!	!	!	!	!	!	!	!LO:TX:t=P:problem=kreska pseudotaktowa	!	!	!	!	!
0AA/	a-	0E/	A-	1.c\	.	4cc\	A-	1A\	A-	0A\	a-	0e\	a-	4ee\	.
.	.	.	.	.	.	4b\	.	.	.	.	.	.	.	4dd\	.
.	.	.	.	.	.	4a\	.	.	.	.	.	.	.	4cc\	.
!	!	!	!	!	!	!LO:TX:t=P:problem=kreska pseudotaktowa	!	!	!	!	!	!	!	!	!
!	!	!	!	!	!	!LO:SIC:v:s=4g#	!	!	!	!	!	!	!	!LO:TX:t=P:problem=kreska pseudotaktowa	!
.	.	.	.	.	.	4g\	.	.	.	.	.	.	.	4b\	A-
.	.	.	.	.	.	2a\	.	1AA/	.	.	.	.	.	1cc\	-men
!	!	!	!	!LO:TX:t=P:problem=kreska pseudotaktowa	!	!	!	!	!	!	!	!	!	!	!
.	.	.	.	2A/	.	4.e/	.	.	.	.	.	.	.	.	.
.	.	.	.	.	.	8f#X/	.	.	.	.	.	.	.	.	.
!	!	!	!	!	!	!LO:TX:t=P:problem=kreska pseudotaktowa	!	!	!	!	!	!	!	!	!
*	*	*	*	*	*	*	*	*Xlig	*	*	*	*	*	*	*
=97-	=97-	=97-	=97-	=97-	=97-	=97-	=97-	=97-	=97-	=97-	=97-	=97-	=97-	=97-	=97-
0EE/	-men	0E/	-men	0B/	-men	0g#X\	-men	0E\	-men	0G#X/	-men	0e\	-men	0b\	.
==	==	==	==	==	==	==	==	==	==	==	==	==	==	==	==
*-	*-	*-	*-	*-	*-	*-	*-	*-	*-	*-	*-	*-	*-	*-	*-
!!!system-decoration: [(s1,s2,s3,s4)],[(s5,s6,s7,s8)]
!!!RDF**kern: > = above
!!!RDF**kern: < = below
!!!EED: Andrzej Borzym
!!!EEV: 2021-08-07
!!!ENC: Katarzyna Serwa
!!!END: 2021-07-16
!!!YEC: Copyright 2022 Narodowy Instytut Fryderyka Chopina (https://polishscores.org)
!!!YEM: License CC-BY-4.0 (https://creativecommons.org/licenses/by/4.0)
